!!!!SEGMENT: pl-cz--iii-667--001-006_scigalski-franciszek--litania-agnus-dei.krn
!!!cenid: 18xx:1083
!!!COM: Ścigalski, Franciszek
!!!COM-rismID: pe30002948
!!!CDT: 1782/01/29-1846/09/27
!!!CNT: Polish
!!!OPR: Litania
!!!OTL: Agnus Dei
!!!OMV: 006
!!!PDT:
!!!AGN: Sacred; Mass
!!!SMS-siglum: PL-CZ
!!!SMS-shelfmark: III-667
!!!SMS-shelfwork: 001-006 M
!!!SMS-variant:
!!!SMS-altvar:
!!!NIFC-rismSourceID: 300001311
!!!NIFC-islandoraID: pl-cz:39753
!!!URL-pdf-islandora: https://repozytorium.nifc.pl/islandora/object/pl-cz%3A39753/datastream/PDF/view
!!!URL-scan:
!!!ONB-nifc: UWAGA: części Litanii: Kyrie, Sancta Maria, Vas spirituale, Domus aurea, Regina angelorum, Agnus Dei
!!!AIN: 2 alto 1 bass 2 clars 2 cor 1 organ 2 soprn 1 tenor 1 tromp 2 violn
!!!key:
**kern	**fba	**dynam	**kern	**dynam	**kern	**dynam	**kern	**text	**dynam	**kern	**text	**dynam	**kern	**text	**dynam	**kern	**text	**dynam	**kern	**text	**dynam	**kern	**text	**dynam	**kern	**dynam	**kern	**dynam	**kern	**dynam	**kern	**dynam	**kern	**dynam
*	*	*	*group5	*	*group5	*	*group4	*	*	*group4	*	*	*group4	*	*	*group4	*	*	*group3	*	*	*group3	*	*	*group2	*	*group2	*	*group2	*	*group1	*	*group1	*
*part14	*part14	*part14	*part13	*part13	*part12	*part12	*part11	*part11	*part11	*part10	*part10	*	*part9	*part9	*	*part8	*part8	*	*part7	*part7	*part7	*part6	*part6	*	*part5	*	*part4	*	*part3	*	*part2	*part2	*part1	*part1
*staff14	*	*	*staff13	*	*staff12	*	*staff11	*staff11	*	*staff10	*staff10	*	*staff9	*staff9	*	*staff8	*staff8	*	*staff7	*staff7	*	*staff6	*staff6	*	*staff5	*	*staff4	*	*staff3	*	*staff2	*	*staff1	*
*I"Organo.	*	*	*I"Violino 2do	*	*I"Violino Imo	*	*I"Basſso. Basſo	*	*	*I"Tenore. Tenore.	*	*	*I"Alto. Coro Alto .	*	*	*I"Canto Coro Canto.	*	*	*I"Alto alto.	*	*	*I"Canto	*	*	*I"Duo Clarini in C.	*	*I"Corno 2do in F.	*	*I"Corno Imo in F.	*	*I"Clarinetto 2do in B.	*	*I"Clarinetto Imo in B.	*
*I'org	*	*	*I'vl 2	*	*I'vl 1	*	*I'Coro B	*	*	*I'Coro T	*	*	*I'Coro A	*	*	*I'Coro S	*	*	*I'A	*	*	*I'S	*	*	*I'clno 1 & 2 in C	*	*I'cor 2 in F	*	*I'cor 1 in F	*	*I'cl 2 in B|b	*	*I'cl 1 in B|b	*
*Iorgan	*	*	*Ivioln	*	*Ivioln	*	*Ibass	*	*	*Itenor	*	*	*Ialto	*	*	*Isoprn	*	*	*Ialto	*	*	*Isoprn	*	*	*Itromp	*	*Icor	*	*Icor	*	*Iclars	*	*Iclars	*
*ICklav	*	*	*ICstr	*	*ICstr	*	*ICvox	*	*	*ICvox	*	*	*ICvox	*	*	*ICvox	*	*	*ICvox	*	*	*ICvox	*	*	*ICbras	*	*ICbras	*	*ICbras	*	*ICww	*	*ICww	*
*IGcont	*	*	*	*	*	*	*IGcoro	*	*	*IGcoro	*	*	*IGcoro	*	*	*IGcoro	*	*	*IGsolo	*	*	*IGsolo	*	*	*	*	*	*	*	*	*	*	*	*
*clefF4	*	*	*clefG2	*	*clefG2	*	*clefF4	*	*	*clefC4	*	*	*clefC3	*	*	*clefC1	*	*	*clefC3	*	*	*clefC1	*	*	*clefG2	*	*clefG2	*	*clefG2	*	*clefG2	*	*clefG2	*
*	*	*	*	*	*	*	*	*	*	*	*	*	*	*	*	*	*	*	*	*	*	*	*	*	*	*	*ITrd4c7	*	*ITrd4c7	*	*ITrd1c2	*	*ITrd1c2	*
*k[b-]	*	*	*k[b-]	*	*k[b-]	*	*k[b-]	*	*	*k[b-]	*	*	*k[b-]	*	*	*k[b-]	*	*	*k[b-]	*	*	*k[b-]	*	*	*k[b-]	*	*k[b-]	*	*k[b-]	*	*k[b-]	*	*k[b-]	*
*F:	*	*	*F:	*	*F:	*	*F:	*	*	*F:	*	*	*F:	*	*	*F:	*	*	*F:	*	*	*F:	*	*	*F:	*	*F:	*	*F:	*	*F:	*	*F:	*
*M4/4	*	*	*M4/4	*	*M4/4	*	*M4/4	*	*	*M4/4	*	*	*M4/4	*	*	*M4/4	*	*	*M4/4	*	*	*M4/4	*	*	*M4/4	*	*M4/4	*	*M4/4	*	*M4/4	*	*M4/4	*
*met(c)	*	*	*met(c)	*	*met(c)	*	*met(c)	*	*	*met(c)	*	*	*met(c)	*	*	*met(c)	*	*	*met(c)	*	*	*met(c)	*	*	*met(c)	*	*met(c)	*	*met(c)	*	*met(c)	*	*met(c)	*
=1	=1	=1	=1	=1	=1	=1	=1	=1	=1	=1	=1	=1	=1	=1	=1	=1	=1	=1	=1	=1	=1	=1	=1	=1	=1	=1	=1	=1	=1	=1	=1	=1	=1	=1
*	*	*	*	*	*	*below	*	*	*	*	*	*	*	*	*	*	*	*	*	*	*	*	*	*	*	*	*	*	*	*	*	*	*	*
!	!	!	!	!	!	!	!	!	!	!	!	!	!	!	!	!	!	!	!	!	!	!	!	!	!	!	!	!	!	!	!	!	!LO:TX:a:B:i:t=adagio	!
!	!	!	!	!	!	!	!LO:TX:a:B:i:t=adagio	!	!	!LO:TX:a:B:i:t=adagio	!	!	!LO:TX:a:B:i:t=adagio	!	!	!LO:TX:a:B:i:t=adagio	!	!	!LO:TX:a:B:i:t=adagio	!	!	!LO:TX:a:B:i:t=adagio	!	!	!LO:TX:a:B:i:t=adagio	!	!LO:TX:a:B:i:t=adagio	!	!LO:TX:a:B:i:t=adagio	!	!LO:TX:a:B:i:t=adagio	!	!LO:TX:a:t=1	!
!LO:TX:a:B:i:t=adagio	!	!LO:DY:rj:t=p.	!LO:TX:a:B:i:t=adagio	!LO:DY:rj:t=p.	!LO:TX:a:B:i:t=adagio	!LO:DY:rj	!LO:TX:a:t=1	!	!	!LO:TX:a:t=1	!	!	!LO:TX:a:t=1.	!	!	!LO:TX:a:t=1	!	!	!LO:TX:a:t=1	!	!	!LO:TX:a:t=1	!	!	!LO:TX:a:t=1	!	!LO:TX:a:t=1	!	!LO:TX:a:t=1	!	!LO:TX:a:t=1	!	!	!
4FF/	10_ 5_	p	8f/ 8c/	p	8a/ 8f/	p	1r	.	.	1r	.	.	1r	.	.	1r	.	.	1r	.	.	1r	.	.	1r	.	1r	.	1r	.	1r	.	1r	.
.	.	.	4f/ 4c/	.	4a/ 4f/	.	.	.	.	.	.	.	.	.	.	.	.	.	.	.	.	.	.	.	.	.	.	.	.	.	.	.	.	.
8.r	.	.	.	.	.	.	.	.	.	.	.	.	.	.	.	.	.	.	.	.	.	.	.	.	.	.	.	.	.	.	.	.	.	.
.	.	.	4f/ 4c/	.	4a/ 4f/	.	.	.	.	.	.	.	.	.	.	.	.	.	.	.	.	.	.	.	.	.	.	.	.	.	.	.	.	.
(32FF/LLL	.	.	.	.	.	.	.	.	.	.	.	.	.	.	.	.	.	.	.	.	.	.	.	.	.	.	.	.	.	.	.	.	.	.
32GG/JJJ)	.	.	.	.	.	.	.	.	.	.	.	.	.	.	.	.	.	.	.	.	.	.	.	.	.	.	.	.	.	.	.	.	.	.
8AA|/L	.	.	.	.	.	.	.	.	.	.	.	.	.	.	.	.	.	.	.	.	.	.	.	.	.	.	.	.	.	.	.	.	.	.
16r	.	.	4f/ 4c/	.	4a/ 4f/	.	.	.	.	.	.	.	.	.	.	.	.	.	.	.	.	.	.	.	.	.	.	.	.	.	.	.	.	.
(32AA/LL	.	.	.	.	.	.	.	.	.	.	.	.	.	.	.	.	.	.	.	.	.	.	.	.	.	.	.	.	.	.	.	.	.	.
32BB-/JJJ)	.	.	.	.	.	.	.	.	.	.	.	.	.	.	.	.	.	.	.	.	.	.	.	.	.	.	.	.	.	.	.	.	.	.
8C|\L	.	.	.	.	.	.	.	.	.	.	.	.	.	.	.	.	.	.	.	.	.	.	.	.	.	.	.	.	.	.	.	.	.	.
16r	.	.	8f/ 8c/	.	8a/ 8f/	.	.	.	.	.	.	.	.	.	.	.	.	.	.	.	.	.	.	.	.	.	.	.	.	.	.	.	.	.
(32D\LL	.	.	.	.	.	.	.	.	.	.	.	.	.	.	.	.	.	.	.	.	.	.	.	.	.	.	.	.	.	.	.	.	.	.
32E\JJJ)	.	.	.	.	.	.	.	.	.	.	.	.	.	.	.	.	.	.	.	.	.	.	.	.	.	.	.	.	.	.	.	.	.	.
=2	=2	=2	=2	=2	=2	=2	=2	=2	=2	=2	=2	=2	=2	=2	=2	=2	=2	=2	=2	=2	=2	=2	=2	=2	=2	=2	=2	=2	=2	=2	=2	=2	=2	=2
*	*	*	*	*	*	*	*	*	*	*	*	*	*	*	*	*	*	*	*	*	*	*	*	*	*^	*	*	*	*	*	*	*	*	*
!	!	!	!	!	!	!	!LO:TX:a:i:t=ſotto voce	!	!	!LO:TX:a:i:t=ſotto voce	!	!	!LO:TX:a:i:t=ſotto voce	!	!	!LO:TX:a:i:t=ſotto voce	!	!	!LO:TX:a:i:t=ſotto voce	!	!	!LO:TX:a:i:t=ſotto voce	!	!	!	!	!	!	!	!	!	!	!	!	!
4F\	.	.	4f/ 4c/	.	4a/ 4f/	.	2r	.	.	2r	.	.	2r	.	.	2r	.	.	2r	.	.	2r	.	.	2r	2ryy	.	2r	.	2r	.	2r	.	2r	.
4r	x x	.	4r	.	4r	.	.	.	.	.	.	.	.	.	.	.	.	.	.	.	.	.	.	.	.	.	.	.	.	.	.	.	.	.	.
*	*	*	*	*	*	*	*	*	*	*	*	*	*	*	*below	*	*	*below	*	*	*below	*	*	*	*	*	*	*	*	*	*	*	*	*	*
!	!	!	!	!	!	!	!	!	!	!	!	!	!	!	!LO:DY:rj:t=p.	!	!	!LO:DY:rj	!	!	!LO:DY:rj:t=p.	!	!	!	!	!	!LO:DY:rj:t=p.	!	!LO:DY:a:rj	!	!LO:DY:rj:t=p.	!	!LO:DY:rj	!	!LO:DY:rj
2r	.	.	2r	.	2r	.	4F\	Ag-	.	4c\	Ag-	.	4f\	Ag-	p	4a\	Ag-	p	4f\	Ag-	p	4a\	Ag-	.	4cc/	4c\	p	4F/	p	4f\	p	4f/	p	4a\	p
.	.	.	.	.	.	.	4F\	-nus	.	4c\	-nus	.	4f\	-nus	.	4a\	-nus	.	4f\	-nus	.	4a\	-nus	.	4cc/	4c\	.	4F/	.	4f\	.	4f/	.	4a\	.
=3	=3	=3	=3	=3	=3	=3	=3	=3	=3	=3	=3	=3	=3	=3	=3	=3	=3	=3	=3	=3	=3	=3	=3	=3	=3	=3	=3	=3	=3	=3	=3	=3	=3	=3	=3
!LO:TX:a:t=1	!	!	!LO:TX:a:t=1.	!	!LO:TX:a:t=1	!	!	!	!	!	!	!	!	!	!	!	!	!	!	!	!	!	!	!	!	!	!	!	!	!	!	!	!	!	!
1r	.	.	1r	.	1r	.	1F\	De-	.	1c\	De-	.	1g\	De-	.	1b-\	De-	.	1g\	De-	.	1b-\	De-	.	1cc/	1c\	.	1C/	.	1c/	.	1g/	.	1b-\	.
=4	=4	=4	=4	=4	=4	=4	=4	=4	=4	=4	=4	=4	=4	=4	=4	=4	=4	=4	=4	=4	=4	=4	=4	=4	=4	=4	=4	=4	=4	=4	=4	=4	=4	=4	=4
!LO:TX:a:t=takty 4-6 zapisane repetycją	!	!	!	!	!	!	!	!	!	!	!	!	!	!	!	!	!	!	!	!	!	!	!	!	!	!	!	!	!	!	!	!	!	!	!
4FF/yy	10_ 5_	.	8f/ 8c/	.	8a/ 8f/	.	4F\	-i	.	4c\	-i	.	4f\	-i	.	4a\	-i	.	4f\	-i	.	4a\	-i	.	4cc/	4c\	.	4F/	.	4f\	.	4f/	.	4a\	.
.	.	.	4f/ 4c/	.	4a/ 4f/	.	.	.	.	.	.	.	.	.	.	.	.	.	.	.	.	.	.	.	.	.	.	.	.	.	.	.	.	.	.
8.ryy	.	.	.	.	.	.	4r	.	.	4r	.	.	4r	.	.	4r	.	.	4r	.	.	4r	.	.	4r	4ryy	.	4r	.	4r	.	4r	.	4r	.
.	.	.	4f/ 4c/	.	4a/ 4f/	.	.	.	.	.	.	.	.	.	.	.	.	.	.	.	.	.	.	.	.	.	.	.	.	.	.	.	.	.	.
(y32FF/LLLyy	.	.	.	.	.	.	.	.	.	.	.	.	.	.	.	.	.	.	.	.	.	.	.	.	.	.	.	.	.	.	.	.	.	.	.
32GG/JJJ)yy	.	.	.	.	.	.	.	.	.	.	.	.	.	.	.	.	.	.	.	.	.	.	.	.	.	.	.	.	.	.	.	.	.	.	.
8AA|/Lyy	.	.	.	.	.	.	2r	.	.	2r	.	.	2r	.	.	2r	.	.	2r	.	.	2r	.	.	2r	2ryy	.	2r	.	2r	.	2r	.	2r	.
16ryy	.	.	4f/ 4c/	.	4a/ 4f/	.	.	.	.	.	.	.	.	.	.	.	.	.	.	.	.	.	.	.	.	.	.	.	.	.	.	.	.	.	.
(y32AA/LLyy	.	.	.	.	.	.	.	.	.	.	.	.	.	.	.	.	.	.	.	.	.	.	.	.	.	.	.	.	.	.	.	.	.	.	.
32BB-/JJJ)yy	.	.	.	.	.	.	.	.	.	.	.	.	.	.	.	.	.	.	.	.	.	.	.	.	.	.	.	.	.	.	.	.	.	.	.
8C|\Lyy	.	.	.	.	.	.	.	.	.	.	.	.	.	.	.	.	.	.	.	.	.	.	.	.	.	.	.	.	.	.	.	.	.	.	.
16ryy	.	.	8f/ 8c/	.	8a/ 8f/	.	.	.	.	.	.	.	.	.	.	.	.	.	.	.	.	.	.	.	.	.	.	.	.	.	.	.	.	.	.
(y32D\LLyy	.	.	.	.	.	.	.	.	.	.	.	.	.	.	.	.	.	.	.	.	.	.	.	.	.	.	.	.	.	.	.	.	.	.	.
32E\JJJ)yy	.	.	.	.	.	.	.	.	.	.	.	.	.	.	.	.	.	.	.	.	.	.	.	.	.	.	.	.	.	.	.	.	.	.	.
=5	=5	=5	=5	=5	=5	=5	=5	=5	=5	=5	=5	=5	=5	=5	=5	=5	=5	=5	=5	=5	=5	=5	=5	=5	=5	=5	=5	=5	=5	=5	=5	=5	=5	=5	=5
4F\yy	.	.	4f/ 4c/	.	4a/ 4f/	.	2r	.	.	2r	.	.	2r	.	.	2r	.	.	2r	.	.	2r	.	.	2r	2ryy	.	2r	.	2r	.	2r	.	2r	.
4ryy	x x	.	4r	.	4r	.	.	.	.	.	.	.	.	.	.	.	.	.	.	.	.	.	.	.	.	.	.	.	.	.	.	.	.	.	.
*	*	*	*	*	*	*	*2\right	*	*	*2\right	*	*	*2\right	*	*	*2\right	*	*	*2\right	*	*	*2\right	*	*	*	*	*	*	*	*	*	*	*	*	*
2ryy	.	.	2r	.	2r	.	2F\	qui	.	2c\	qui	.	2f\	qui	.	2a\	qui	.	2f\	qui	.	2a\	qui	.	4cc/	4c\	.	4F/	.	4f\	.	4f/	.	4a\	.
.	.	.	.	.	.	.	.	.	.	.	.	.	.	.	.	.	.	.	.	.	.	.	.	.	4cc/	4c\	.	4F/	.	4f\	.	4f/	.	4a\	.
=6	=6	=6	=6	=6	=6	=6	=6	=6	=6	=6	=6	=6	=6	=6	=6	=6	=6	=6	=6	=6	=6	=6	=6	=6	=6	=6	=6	=6	=6	=6	=6	=6	=6	=6	=6
!LO:TX:a:t=1	!	!	!LO:TX:a:t=1	!	!LO:TX:a:t=1	!	!	!	!	!	!	!	!	!	!	!	!	!	!	!	!	!	!	!	!	!	!	!	!	!	!	!	!	!	!
1ryy	.	.	1r	.	1r	.	4E\	tol-	.	4c\	tol-	.	4g\	tol-	.	4b-\	tol-	.	4g\	tol-	.	4b-\	tol-	.	1cc/	1c\	.	1C/	.	1c/	.	1g/	.	1b-\	.
.	.	.	.	.	.	.	8E\	-lis	.	8c\	-lis	.	8g\	-lis	.	8b-\	-lis	.	8g\	-lis	.	8b-\	-lis	.	.	.	.	.	.	.	.	.	.	.	.
.	.	.	.	.	.	.	8E\	pec-	.	8c\	pec-	.	8g\	pec-	.	8b-\	pec-	.	8g\	pec-	.	8b-\	pec-	.	.	.	.	.	.	.	.	.	.	.	.
!	!	!	!	!	!	!	!	!	!	!	!	!	!LO:LB:g=original	!	!	!	!	!	!	!	!	!	!	!	!	!	!	!	!	!	!	!	!	!	!
.	.	.	.	.	.	.	4E\	-ca-	.	4c\	-ca-	.	4g\	-ca-	.	4b-\	-ca-	.	4g\	-ca-	.	4b-\	-ca-	.	.	.	.	.	.	.	.	.	.	.	.
.	.	.	.	.	.	.	4E\	-ta	.	4c\	-ta	.	4g\	-ta	.	4b-\	-ta	.	4g\	-ta	.	4b-\	-ta	.	.	.	.	.	.	.	.	.	.	.	.
!	!	!	!	!	!	!	!LO:LB:g=original	!	!	!LO:LB:g=original	!	!	!	!	!	!LO:LB:g=original	!	!	!LO:LB:g=original	!	!	!LO:LB:g=original	!	!	!	!	!	!	!	!	!	!	!	!	!
=7	=7	=7	=7	=7	=7	=7	=7	=7	=7	=7	=7	=7	=7	=7	=7	=7	=7	=7	=7	=7	=7	=7	=7	=7	=7	=7	=7	=7	=7	=7	=7	=7	=7	=7	=7
4FF/	10_ 5_	.	8f/ 8c/	.	8a/ 8f/	.	4F\	mun-	.	4c\	mun-	.	4f\	mun-	.	4a\	mun-	.	4f\	mun-	.	4a\	mun-	.	4cc/	4c\	.	4F/	.	4f\	.	4f/	.	4a\	.
.	.	.	4f/ 4c/	.	4a/ 4f/	.	.	.	.	.	.	.	.	.	.	.	.	.	.	.	.	.	.	.	.	.	.	.	.	.	.	.	.	.	.
*	*	*	*	*	*	*	*	*	*	*	*	*	*	*	*	*	*	*	*	*	*	*	*	*	*v	*v	*	*	*	*	*	*	*	*	*
8.r	.	.	.	.	.	.	4F\	-di	.	4c\	-di	.	4f\	-di	.	4a\	-di	.	4f\	-di	.	4a\	-di	.	4r	.	4r	.	4r	.	4r	.	4r	.
.	.	.	4f/ 4c/	.	4a/ 4f/	.	.	.	.	.	.	.	.	.	.	.	.	.	.	.	.	.	.	.	.	.	.	.	.	.	.	.	.	.
(32FF/LLL	.	.	.	.	.	.	.	.	.	.	.	.	.	.	.	.	.	.	.	.	.	.	.	.	.	.	.	.	.	.	.	.	.	.
32GG/JJJ)	.	.	.	.	.	.	.	.	.	.	.	.	.	.	.	.	.	.	.	.	.	.	.	.	.	.	.	.	.	.	.	.	.	.
8AA|/L	.	.	.	.	.	.	2r	.	.	2r	.	.	2r	.	.	2r	.	.	2r	.	.	2r	.	.	2r	.	2r	.	2r	.	2r	.	2r	.
16r	.	.	4f/ 4c/	.	4a/ 4f/	.	.	.	.	.	.	.	.	.	.	.	.	.	.	.	.	.	.	.	.	.	.	.	.	.	.	.	.	.
(32AA/LL	.	.	.	.	.	.	.	.	.	.	.	.	.	.	.	.	.	.	.	.	.	.	.	.	.	.	.	.	.	.	.	.	.	.
32BB-/JJJ)	.	.	.	.	.	.	.	.	.	.	.	.	.	.	.	.	.	.	.	.	.	.	.	.	.	.	.	.	.	.	.	.	.	.
8C|\L	.	.	.	.	.	.	.	.	.	.	.	.	.	.	.	.	.	.	.	.	.	.	.	.	.	.	.	.	.	.	.	.	.	.
16r	.	.	8f/ 8c/	.	8a/ 8f/	.	.	.	.	.	.	.	.	.	.	.	.	.	.	.	.	.	.	.	.	.	.	.	.	.	.	.	.	.
(32D\LL	.	.	.	.	.	.	.	.	.	.	.	.	.	.	.	.	.	.	.	.	.	.	.	.	.	.	.	.	.	.	.	.	.	.
32E\JJJ)	.	.	.	.	.	.	.	.	.	.	.	.	.	.	.	.	.	.	.	.	.	.	.	.	.	.	.	.	.	.	.	.	.	.
!LO:LB:g=original	!	!	!LO:LB:g=original	!	!LO:LB:g=original	!	!	!	!	!	!	!	!	!	!	!	!	!	!	!	!	!	!	!	!	!	!	!	!	!	!	!	!	!
=8	=8	=8	=8	=8	=8	=8	=8	=8	=8	=8	=8	=8	=8	=8	=8	=8	=8	=8	=8	=8	=8	=8	=8	=8	=8	=8	=8	=8	=8	=8	=8	=8	=8	=8
*	*	*	*	*	*	*	*	*	*	*	*	*	*	*	*	*	*	*	*	*	*	*	*	*	*^	*	*	*	*	*	*	*	*	*
4F\	.	.	4f/ 4c/	.	4a/ 4f/	.	2r	.	.	2r	.	.	2r	.	.	2r	.	.	2r	.	.	2r	.	.	2r	2ryy	.	2r	.	4r	.	2r	.	2r	.
4r	x x	.	4r	.	4r	.	.	.	.	.	.	.	.	.	.	.	.	.	.	.	.	.	.	.	.	.	.	.	.	4ryy	.	.	.	.	.
2r	.	.	2r	.	2r	.	4F\	par-	.	4f\	par-	.	4a\	par-	.	4cc\	par-	.	4a\	par-	.	4cc\	par-	.	4cc/	4c\	.	4F/	.	4f\	.	4a\	.	4cc\	.
.	.	.	.	.	.	.	4F\	-ce	.	4f\	-ce	.	4a\	-ce	.	4cc\	-ce	.	4a\	-ce	.	4cc\	-ce	.	4cc/	4c\	.	4F/	.	4f\	.	4a\	.	4cc\	.
*	*	*	*	*	*	*	*	*	*	*	*	*	*	*	*	*	*	*	*	*	*	*	*	*	*v	*v	*	*	*	*	*	*	*	*	*
=9	=9	=9	=9	=9	=9	=9	=9	=9	=9	=9	=9	=9	=9	=9	=9	=9	=9	=9	=9	=9	=9	=9	=9	=9	=9	=9	=9	=9	=9	=9	=9	=9	=9	=9
*	*	*	*	*	*	*	*	*	*	*	*	*	*	*	*	*	*	*	*	*	*	*	*	*	*	*	*	*	*2\right	*	*2\right	*	*2\right	*
!LO:TX:a:t=2.	!	!	!LO:TX:a:t=2	!	!LO:TX:a:t=2.	!	!	!	!	!	!	!	!	!	!	!	!	!	!	!	!	!	!	!	!LO:TX:a:t=1.	!	!	!	!	!	!	!	!	!
0r	.	.	0r	.	0r	.	2F\	no-	.	2f\	no-	.	2b-\	no-	.	2dd\	no-	.	2b-\	no-	.	2dd\	no-	.	1r	.	2F/	.	2f\	.	2b-\	.	2dd\	.
.	.	.	.	.	.	.	2F\	-bis	.	2f\	-bis	.	2a\	-bis	.	2cc\	-bis	.	2a\	-bis	.	2cc\	-bis	.	.	.	2F/	.	2f\	.	2a\	.	2cc\	.
!	!	!	!	!	!	!	!	!	!	!	!	!	!	!	!	!	!	!	!	!	!	!	!	!	!LO:LB:g=original	!	!LO:LB:g=original	!	!	!	!LO:LB:g=original	!	!	!
=10	=10	=10	=10	=10	=10	=10	=10	=10	=10	=10	=10	=10	=10	=10	=10	=10	=10	=10	=10	=10	=10	=10	=10	=10	=10	=10	=10	=10	=10	=10	=10	=10	=10	=10
*	*	*	*	*	*	*	*	*	*	*	*	*	*	*	*	*	*	*	*	*	*	*	*	*	*^	*	*	*	*	*	*	*	*	*
*	*	*	*	*	*	*	*	*	*	*	*	*	*	*	*	*	*	*	*	*	*	*	*	*	*	*2\right	*	*	*	*	*	*	*	*	*
.	.	.	.	.	.	.	(2E\	Do-	.	2c\	Do-	.	2g\	Do-	.	2b-\	Do-	.	2g\	Do-	.	2b-\	Do-	.	2cc/	2c\	.	2C/	.	2c/	.	2g/	.	2b-\	.
.	.	.	.	.	.	.	2F\)	-mi-	.	2c\	-mi-	.	2f\	-mi-	.	2a\	-mi-	.	2f\	-mi-	.	2a\	-mi-	.	2cc/	2c\	.	2F/	.	2f\	.	2f/	.	2a\	.
!	!	!	!	!	!	!	!	!	!	!	!	!	!	!	!	!	!	!	!	!	!	!	!	!	!	!	!	!	!	!LO:LB:g=original	!	!	!	!LO:LB:g=original	!
=11	=11	=11	=11	=11	=11	=11	=11	=11	=11	=11	=11	=11	=11	=11	=11	=11	=11	=11	=11	=11	=11	=11	=11	=11	=11	=11	=11	=11	=11	=11	=11	=11	=11	=11	=11
!	!	!LO:DY:rj:t=f.	!	!LO:DY:rj:t=f.	!	!LO:DY:rj:t=f.	!	!	!	!	!	!	!	!	!	!	!	!	!	!	!	!	!	!	!	!	!LO:DY:rj	!	!LO:DY:rj	!	!LO:DY:rj	!	!LO:DY:rj:t=f.	!	!
4C\	10_ 5_	f	8cc/ 8g/	f	8ee\ 8cc\	f	4C/	-ne	.	4c\	-ne	.	4e\	-ne	.	4g\	-ne	.	4e\	-ne	.	4g\	-ne	.	4cc/	4c\	f	4C/	f	4c/	f	4e/	f	4g/	f
.	.	.	4cc/ 4g/	.	4ee\ 4cc\	.	.	.	.	.	.	.	.	.	.	.	.	.	.	.	.	.	.	.	.	.	.	.	.	.	.	.	.	.	.
8.r	.	.	.	.	.	.	4r	.	.	4r	.	.	4r	.	.	4r	.	.	4r	.	.	4r	.	.	2cc/	2e\	.	2c/	.	2g\	.	2cc\	.	2ee\	.
.	.	.	4cc/ 4g/	.	4ee\ 4cc\	.	.	.	.	.	.	.	.	.	.	.	.	.	.	.	.	.	.	.	.	.	.	.	.	.	.	.	.	.	.
(32C\LLL	.	.	.	.	.	.	.	.	.	.	.	.	.	.	.	.	.	.	.	.	.	.	.	.	.	.	.	.	.	.	.	.	.	.	.
32D\JJJ)	.	.	.	.	.	.	.	.	.	.	.	.	.	.	.	.	.	.	.	.	.	.	.	.	.	.	.	.	.	.	.	.	.	.	.
8E|\L	.	.	.	.	.	.	2r	.	.	2r	.	.	2r	.	.	2r	.	.	2r	.	.	2r	.	.	.	.	.	.	.	.	.	.	.	.	.
16r	.	.	4cc/ 4g/	.	4ee\ 4cc\	.	.	.	.	.	.	.	.	.	.	.	.	.	.	.	.	.	.	.	.	.	.	.	.	.	.	.	.	.	.
(32E\LL	.	.	.	.	.	.	.	.	.	.	.	.	.	.	.	.	.	.	.	.	.	.	.	.	.	.	.	.	.	.	.	.	.	.	.
32F\JJJ)	.	.	.	.	.	.	.	.	.	.	.	.	.	.	.	.	.	.	.	.	.	.	.	.	.	.	.	.	.	.	.	.	.	.	.
8G|\L	.	.	.	.	.	.	.	.	.	.	.	.	.	.	.	.	.	.	.	.	.	.	.	.	4cc/	4e\	.	4c/	.	4g\	.	4cc\	.	4ee\	.
16r	.	.	8cc/ 8g/	.	8ee\ 8cc\	.	.	.	.	.	.	.	.	.	.	.	.	.	.	.	.	.	.	.	.	.	.	.	.	.	.	.	.	.	.
(32A\LL	.	.	.	.	.	.	.	.	.	.	.	.	.	.	.	.	.	.	.	.	.	.	.	.	.	.	.	.	.	.	.	.	.	.	.
32Bn\JJJ)	.	.	.	.	.	.	.	.	.	.	.	.	.	.	.	.	.	.	.	.	.	.	.	.	.	.	.	.	.	.	.	.	.	.	.
=12	=12	=12	=12	=12	=12	=12	=12	=12	=12	=12	=12	=12	=12	=12	=12	=12	=12	=12	=12	=12	=12	=12	=12	=12	=12	=12	=12	=12	=12	=12	=12	=12	=12	=12	=12
4c\	.	.	4cc/ 4g/	.	4ee\ 4cc\	.	2r	.	.	2r	.	.	2r	.	.	2r	.	.	2r	.	.	2r	.	.	4cc/	4e\	.	4c/	.	4g\	.	4cc\	.	4ee\	.
4r	x x	.	4r	.	4r	.	.	.	.	.	.	.	.	.	.	.	.	.	.	.	.	.	.	.	4r	4ryy	.	4r	.	4r	.	4r	.	4r	.
*	*	*	*	*	*	*	*	*	*below	*	*	*	*	*	*	*	*	*	*	*	*	*	*	*below	*	*	*	*	*	*	*	*	*	*	*
!	!	!	!	!	!	!	!	!	!LO:DY:rj:t=f.	!	!	!LO:DY:rj:t=f.	!	!	!LO:DY:rj:t=f.	!	!	!LO:DY:rj	!	!	!LO:DY:rj	!	!	!LO:DY:rj	!	!	!	!	!	!	!	!	!	!	!
2r	.	.	2r	.	2r	.	4c\	Ag-	f	4c\	Ag-	f	4g\	Ag-	f	4ee\	Ag-	f	4g\	Ag-	f	4ee\	Ag-	f	4cc/	4e\	.	4c/	.	4g\	.	4cc\	.	4ee\	.
.	.	.	.	.	.	.	4c\	-nus	.	4c\	-nus	.	4g\	-nus	.	4ee\	-nus	.	4g\	-nus	.	4ee\	-nus	.	4cc/	4e\	.	4c/	.	4g\	.	4cc\	.	4ee\	.
*	*	*	*	*	*	*	*	*	*	*	*	*	*	*	*	*	*	*	*	*	*	*	*	*	*v	*v	*	*	*	*	*	*	*	*	*
!	!	!	!	!	!	!	!	!	!	!	!	!	!LO:LB:g=original	!	!	!	!	!	!	!	!	!	!	!	!	!	!	!	!	!	!	!	!	!
=13	=13	=13	=13	=13	=13	=13	=13	=13	=13	=13	=13	=13	=13	=13	=13	=13	=13	=13	=13	=13	=13	=13	=13	=13	=13	=13	=13	=13	=13	=13	=13	=13	=13	=13
!LO:TX:a:t=1.	!	!	!LO:TX:a:t=1	!	!LO:TX:a:t=1	!	!	!	!	!	!	!	!	!	!	!	!	!	!	!	!	!	!	!	!	!	!	!	!	!	!	!	!	!
1r	.	.	1r	.	1r	.	1Bn\	De-	.	1d\	De-	.	1g\	De-	.	1ff\	De-	.	1g\	De-	.	1ff\	De-	.	1dd/ 1g/	.	1g/	.	1g/	.	1dd\	.	1ff\	.
!	!	!	!	!	!	!	!	!	!	!	!	!	!	!	!	!LO:LB:g=original	!	!	!	!	!	!	!	!	!	!	!	!	!	!	!	!	!	!
=14	=14	=14	=14	=14	=14	=14	=14	=14	=14	=14	=14	=14	=14	=14	=14	=14	=14	=14	=14	=14	=14	=14	=14	=14	=14	=14	=14	=14	=14	=14	=14	=14	=14	=14
*	*	*	*	*	*	*	*	*	*	*	*	*	*	*	*	*	*	*	*	*	*	*	*	*	*^	*	*	*	*	*	*	*	*	*
4C\	10_ 5_	.	8cc/ 8g/	.	8ee\ 8cc\	.	4c\	-i	.	4c\	-i	.	4g\	-i	.	4ee\	-i	.	4g\	-i	.	4ee\	-i	.	4cc/	4e\	.	2c/	.	2g\	.	2cc\	.	2ee\	.
.	.	.	4cc/ 4g/	.	4ee\ 4cc\	.	.	.	.	.	.	.	.	.	.	.	.	.	.	.	.	.	.	.	.	.	.	.	.	.	.	.	.	.	.
8.r	.	.	.	.	.	.	4r	.	.	4r	.	.	4r	.	.	4r	.	.	4r	.	.	4r	.	.	2cc/	2e\	.	.	.	.	.	.	.	.	.
.	.	.	4cc/ 4g/	.	4ee\ 4cc\	.	.	.	.	.	.	.	.	.	.	.	.	.	.	.	.	.	.	.	.	.	.	.	.	.	.	.	.	.	.
(32C\LLL	.	.	.	.	.	.	.	.	.	.	.	.	.	.	.	.	.	.	.	.	.	.	.	.	.	.	.	.	.	.	.	.	.	.	.
32D\JJJ)	.	.	.	.	.	.	.	.	.	.	.	.	.	.	.	.	.	.	.	.	.	.	.	.	.	.	.	.	.	.	.	.	.	.	.
8E|\L	.	.	.	.	.	.	2r	.	.	2r	.	.	2r	.	.	2r	.	.	2r	.	.	2r	.	.	.	.	.	4c/	.	4g\	.	4cc\	.	4ee\	.
16r	.	.	4cc/ 4g/	.	4ee\ 4cc\	.	.	.	.	.	.	.	.	.	.	.	.	.	.	.	.	.	.	.	.	.	.	.	.	.	.	.	.	.	.
(32E\LL	.	.	.	.	.	.	.	.	.	.	.	.	.	.	.	.	.	.	.	.	.	.	.	.	.	.	.	.	.	.	.	.	.	.	.
32F\JJJ)	.	.	.	.	.	.	.	.	.	.	.	.	.	.	.	.	.	.	.	.	.	.	.	.	.	.	.	.	.	.	.	.	.	.	.
8G|\L	.	.	.	.	.	.	.	.	.	.	.	.	.	.	.	.	.	.	.	.	.	.	.	.	4cc/	4e\	.	4c/	.	4g\	.	4cc\	.	4ee\	.
16r	.	.	8cc/ 8g/	.	8ee\ 8cc\	.	.	.	.	.	.	.	.	.	.	.	.	.	.	.	.	.	.	.	.	.	.	.	.	.	.	.	.	.	.
(32A\LL	.	.	.	.	.	.	.	.	.	.	.	.	.	.	.	.	.	.	.	.	.	.	.	.	.	.	.	.	.	.	.	.	.	.	.
32Bn\JJJ)	.	.	.	.	.	.	.	.	.	.	.	.	.	.	.	.	.	.	.	.	.	.	.	.	.	.	.	.	.	.	.	.	.	.	.
!	!	!	!	!	!	!	!LO:LB:g=original	!	!	!LO:LB:g=original	!	!	!	!	!	!	!	!	!LO:LB:g=original	!	!	!LO:LB:g=original	!	!	!	!	!	!	!	!	!	!	!	!	!
=15	=15	=15	=15	=15	=15	=15	=15	=15	=15	=15	=15	=15	=15	=15	=15	=15	=15	=15	=15	=15	=15	=15	=15	=15	=15	=15	=15	=15	=15	=15	=15	=15	=15	=15	=15
!	!	!	!	!	!	!	!	!	!	!	!	!	!	!	!	!	!	!	!	!	!	!	!	!	!	!	!	!LO:TX:t=P:problem=brak taktu	!	!	!	!	!	!	!
4c\	.	.	4cc/ 4g/	.	4ee\ 4cc\	.	2r	.	.	2r	.	.	2r	.	.	2r	.	.	2r	.	.	2r	.	.	2cc/	2e\	.	1ryy	.	2g\	.	2cc\	.	2ee\	.
4r	x x	.	4r	.	4r	.	.	.	.	.	.	.	.	.	.	.	.	.	.	.	.	.	.	.	.	.	.	.	.	.	.	.	.	.	.
2r	.	.	2r	.	2r	.	2c\	qui	.	2c\	qui	.	2g\	qui	.	2ee\	qui	.	2g\	qui	.	2ee\	qui	.	2cc/	2e\	.	.	.	2g\	.	2cc\	.	2ee\	.
*	*	*	*	*	*	*	*	*	*	*	*	*	*	*	*	*	*	*	*	*	*	*	*	*	*v	*v	*	*	*	*	*	*	*	*	*
!LO:LB:g=original	!	!	!	!	!	!	!	!	!	!	!	!	!	!	!	!	!	!	!	!	!	!	!	!	!	!	!	!	!	!	!	!	!	!
=16	=16	=16	=16	=16	=16	=16	=16	=16	=16	=16	=16	=16	=16	=16	=16	=16	=16	=16	=16	=16	=16	=16	=16	=16	=16	=16	=16	=16	=16	=16	=16	=16	=16	=16
!LO:TX:a:t=4.	!	!	!LO:TX:a:t=4.	!	!LO:TX:a:t=4.	!	!	!	!	!	!	!	!	!	!	!	!	!	!	!	!	!	!	!	!	!	!	!	!	!	!	!	!	!
00r	.	.	00r	.	00r	.	4Bn\	tol-	.	4d\	tol-	.	4g\	tol-	.	4ff\	tol-	.	4g\	tol-	.	4ff\	tol-	.	1dd/ 1g/	.	1g/	.	1g/	.	1dd\	.	1ff\	.
.	.	.	.	.	.	.	8B\	-lis	.	8d\	-lis	.	8g\	-lis	.	8ff\	-lis	.	8g\	-lis	.	8ff\	-lis	.	.	.	.	.	.	.	.	.	.	.
.	.	.	.	.	.	.	8B\	pec-	.	8d\	pec-	.	8g\	pec-	.	8ff\	pec-	.	8g\	pec-	.	8ff\	pec-	.	.	.	.	.	.	.	.	.	.	.
.	.	.	.	.	.	.	4B\	-ca-	.	4d\	-ca-	.	4g\	-ca-	.	4ff\	-ca-	.	4g\	-ca-	.	4ff\	-ca-	.	.	.	.	.	.	.	.	.	.	.
.	.	.	.	.	.	.	4B\	-ta	.	4d\	-ta	.	4g\	-ta	.	4ff\	-ta	.	4g\	-ta	.	4ff\	-ta	.	.	.	.	.	.	.	.	.	.	.
=17	=17	=17	=17	=17	=17	=17	=17	=17	=17	=17	=17	=17	=17	=17	=17	=17	=17	=17	=17	=17	=17	=17	=17	=17	=17	=17	=17	=17	=17	=17	=17	=17	=17	=17
*	*	*	*	*	*	*	*	*	*	*	*	*	*	*	*	*	*	*	*	*	*	*	*	*	*^	*	*	*	*	*	*	*	*	*
.	.	.	.	.	.	.	4c\	mun-	.	4c\	mun-	.	4g\	mun-	.	4ee\	mun-	.	4g\	mun-	.	4ee\	mun-	.	4cc/	4e\	.	4c/	.	4g\	.	4cc\	.	4ee\	.
.	.	.	.	.	.	.	4C/	-di	.	4c\	-di	.	4g\	-di	.	4cc\	-di	.	4g\	-di	.	4cc\	-di	.	4r	4ryy	.	4r	.	4r	.	4r	.	4r	.
.	.	.	.	.	.	.	2AA/	ex-	.	2A\	e-	.	2e\	ex-	.	2cc\	Ex-	.	2e\	ex-	.	2cc\	Ex-	.	2r	2ryy	.	2A/	.	2a\	.	2a\	.	2cc\	.
*	*	*	*	*	*	*	*	*	*	*	*	*	*	*	*	*	*	*	*	*	*	*	*	*	*v	*v	*	*	*	*	*	*	*	*	*
=18	=18	=18	=18	=18	=18	=18	=18	=18	=18	=18	=18	=18	=18	=18	=18	=18	=18	=18	=18	=18	=18	=18	=18	=18	=18	=18	=18	=18	=18	=18	=18	=18	=18	=18
!	!	!	!	!	!	!	!	!	!	!	!	!	!	!	!	!	!	!	!	!	!	!	!	!	!LO:TX:a:t=1	!	!	!	!	!	!	!	!	!
.	.	.	.	.	.	.	2F\	-au-	.	2f\	-xau-	.	2a\	-au-	.	2dd\	-au-	.	2a\	-au-	.	2dd\	-au-	.	1r	.	2A/	.	2a\	.	2a\	.	2dd\	.
.	.	.	.	.	.	.	4D\	-di	.	4d\	-di	.	4a\	-di	.	4ff\	-di	.	4a\	-di	.	4ff\	-di	.	.	.	2r	.	2r	.	2a\	.	2ff\	.
.	.	.	.	.	.	.	4D\	nos	.	4d\	nos	.	4a\	nos	.	4ff\	nos	.	4a\	nos	.	4ff\	nos	.	.	.	.	.	.	.	.	.	.	.
!	!	!	!	!	!	!	!	!	!	!	!	!	!LO:LB:g=original	!	!	!LO:LB:g=original	!	!	!LO:LB:g=original	!	!	!	!	!	!	!	!	!	!	!	!	!	!	!
=19	=19	=19	=19	=19	=19	=19	=19	=19	=19	=19	=19	=19	=19	=19	=19	=19	=19	=19	=19	=19	=19	=19	=19	=19	=19	=19	=19	=19	=19	=19	=19	=19	=19	=19
*	*	*	*	*	*	*	*	*	*	*	*	*	*	*	*	*	*	*	*	*	*	*	*	*	*^	*	*	*	*	*	*	*	*	*
!	!	!	!	!	!	!	!	!	!	!	!	!	!	!	!	!	!	!	!	!	!	!	!	!	!	!	!	!LO:TX:a:t=7.	!	!LO:TX:a:t=7.	!	!	!	!	!
.	.	.	.	.	.	.	2.E\	Do-	.	2.c\	Do-	.	2.a\	Do-	.	2.ee\	Do-	.	2.a\	Do-	.	2.ee\	Do-	.	2ee/	2e\	.	00r	.	00r	.	1g#X/	.	1eenX\	.
.	.	.	.	.	.	.	.	.	.	.	.	.	.	.	.	.	.	.	.	.	.	.	.	.	2ee/	2e\	.	.	.	.	.	.	.	.	.
.	.	.	.	.	.	.	4E\	-mi-	.	4Bn\	-mi-	.	4e\	-mi-	.	4g#X\	-mi-	.	4e\	-mi-	.	4g#X\	-mi-	.	.	.	.	.	.	.	.	.	.	.	.
!	!	!	!	!	!LO:LB:g=original	!	!	!	!	!	!	!	!	!	!	!	!	!	!	!	!	!	!	!	!	!	!	!	!	!	!	!LO:LB:g=original	!	!	!
=20	=20	=20	=20	=20	=20	=20	=20	=20	=20	=20	=20	=20	=20	=20	=20	=20	=20	=20	=20	=20	=20	=20	=20	=20	=20	=20	=20	=20	=20	=20	=20	=20	=20	=20	=20
!	!	!LO:DY:rj	!	!LO:DY:rj:t=p.	!	!LO:DY:rj	!	!	!	!	!	!	!	!	!	!	!	!	!	!	!	!	!	!	!	!	!	!	!	!	!	!	!	!	!
4AA/	5_ 3_	p	8a/ 8e/	p	8cc/ 8e/	p	4AA/	-ne	.	4c\	-ne	.	4e\	-ne	.	4a\	-ne	.	4e\	-ne	.	4a\	-ne	.	4ee/	4e\	.	.	.	.	.	4a\	.	4cc\	.
.	.	.	4a/ 4e/	.	4cc/ 4e/	.	.	.	.	.	.	.	.	.	.	.	.	.	.	.	.	.	.	.	.	.	.	.	.	.	.	.	.	.	.
8.r	.	.	.	.	.	.	4r	.	.	4r	.	.	4r	.	.	4r	.	.	4r	.	.	4r	.	.	4r	4r	.	.	.	.	.	4r	.	4r	.
.	.	.	4a/ 4e/	.	4cc/ 4e/	.	.	.	.	.	.	.	.	.	.	.	.	.	.	.	.	.	.	.	.	.	.	.	.	.	.	.	.	.	.
(32AA/LLL	.	.	.	.	.	.	.	.	.	.	.	.	.	.	.	.	.	.	.	.	.	.	.	.	.	.	.	.	.	.	.	.	.	.	.
32BBn/JJJ)	.	.	.	.	.	.	.	.	.	.	.	.	.	.	.	.	.	.	.	.	.	.	.	.	.	.	.	.	.	.	.	.	.	.	.
8CX|\L	.	.	.	.	.	.	2r	.	.	2r	.	.	2r	.	.	2r	.	.	2r	.	.	2r	.	.	2r	2ryy	.	.	.	.	.	2r	.	2r	.
16r	.	.	4a/ 4e/	.	4cc/ 4e/	.	.	.	.	.	.	.	.	.	.	.	.	.	.	.	.	.	.	.	.	.	.	.	.	.	.	.	.	.	.
(32C\LL	.	.	.	.	.	.	.	.	.	.	.	.	.	.	.	.	.	.	.	.	.	.	.	.	.	.	.	.	.	.	.	.	.	.	.
32D\JJJ)	.	.	.	.	.	.	.	.	.	.	.	.	.	.	.	.	.	.	.	.	.	.	.	.	.	.	.	.	.	.	.	.	.	.	.
8E|\L	.	.	.	.	.	.	.	.	.	.	.	.	.	.	.	.	.	.	.	.	.	.	.	.	.	.	.	.	.	.	.	.	.	.	.
16r	.	.	8a/ 8e/	.	8cc/ 8e/	.	.	.	.	.	.	.	.	.	.	.	.	.	.	.	.	.	.	.	.	.	.	.	.	.	.	.	.	.	.
(32F#X\LL	.	.	.	.	.	.	.	.	.	.	.	.	.	.	.	.	.	.	.	.	.	.	.	.	.	.	.	.	.	.	.	.	.	.	.
32G#X\JJJ)	.	.	.	.	.	.	.	.	.	.	.	.	.	.	.	.	.	.	.	.	.	.	.	.	.	.	.	.	.	.	.	.	.	.	.
*	*	*	*	*	*	*	*	*	*	*	*	*	*	*	*	*	*	*	*	*	*	*	*	*	*v	*v	*	*	*	*	*	*	*	*	*
!	!	!	!	!	!	!	!LO:LB:g=original	!	!	!LO:LB:g=original	!	!	!	!	!	!	!	!	!	!	!	!LO:LB:g=original	!	!	!LO:LB:g=original	!	!	!	!	!	!	!	!	!
=21	=21	=21	=21	=21	=21	=21	=21	=21	=21	=21	=21	=21	=21	=21	=21	=21	=21	=21	=21	=21	=21	=21	=21	=21	=21	=21	=21	=21	=21	=21	=21	=21	=21	=21
*	*	*	*	*	*	*	*	*	*	*	*	*	*	*	*	*	*	*	*	*	*	*	*	*	*^	*	*	*	*	*	*	*	*	*
4A\	.	.	4a/ 4e/	.	4cc/ 4e/	.	2r	.	.	2r	.	.	2r	.	.	2r	.	.	2r	.	.	2r	.	.	2r	2ryy	.	.	.	.	.	2r	.	2r	.
4r	x x	.	4r	.	4r	.	.	.	.	.	.	.	.	.	.	.	.	.	.	.	.	.	.	.	.	.	.	.	.	.	.	.	.	.	.
!	!	!	!	!	!	!	!	!	!LO:DY:rj:t=p.	!	!	!LO:DY:rj:t=p.	!	!	!LO:DY:rj:t=p.	!	!	!LO:DY:rj:t=p.	!	!	!LO:DY:rj	!	!	!LO:DY:rj	!	!	!LO:DY:rj	!	!	!	!	!	!LO:DY:rj	!	!LO:DY:rj
2r	.	.	2r	.	2r	.	4A\	Ag-	p	4e\	Ag-	p	4a\	Ag-	p	4cc\	Ag-	p	4a\	Ag-	p	4cc\	Ag-	p	4ee/	4e\	p	.	.	.	.	2a\	p	2cc\	p
.	.	.	.	.	.	.	4A\	-nus	.	4e\	-nus	.	4a\	-nus	.	4cc\	-nus	.	4a\	-nus	.	4cc\	-nus	.	4ee/	4e\	.	.	.	.	.	.	.	.	.
!	!	!	!	!	!	!	!	!	!	!	!	!	!	!	!	!	!	!	!LO:LB:g=original	!	!	!	!	!	!	!	!	!	!	!	!	!	!	!LO:LB:g=original	!
=22	=22	=22	=22	=22	=22	=22	=22	=22	=22	=22	=22	=22	=22	=22	=22	=22	=22	=22	=22	=22	=22	=22	=22	=22	=22	=22	=22	=22	=22	=22	=22	=22	=22	=22	=22
!LO:TX:a:t=1.	!	!	!LO:TX:a:t=1	!	!LO:TX:a:t=1.	!	!	!	!	!	!	!	!	!	!	!	!	!	!	!	!	!	!	!	!	!	!	!	!	!	!	!	!	!	!
1r	.	.	1r	.	1r	.	1G#X\	De-	.	1e\	De-	.	1bn\	De-	.	1dd\	De-	.	1bn\	De-	.	1dd\	De-	.	1ee/	1e\	.	.	.	.	.	1bX\	.	1dd\	.
=23	=23	=23	=23	=23	=23	=23	=23	=23	=23	=23	=23	=23	=23	=23	=23	=23	=23	=23	=23	=23	=23	=23	=23	=23	=23	=23	=23	=23	=23	=23	=23	=23	=23	=23	=23
4AA/	5_ 3_	.	8a/ 8e/	.	8cc/ 8e/	.	4A\	-i	.	4e\	-i	.	4a\	-i	.	4cc\	-i	.	4a\	-i	.	4cc\	-i	.	4ee/	4e\	.	0r	.	0r	.	4a\	.	4cc\	.
.	.	.	4a/ 4e/	.	4cc/ 4e/	.	.	.	.	.	.	.	.	.	.	.	.	.	.	.	.	.	.	.	.	.	.	.	.	.	.	.	.	.	.
8.r	.	.	.	.	.	.	4r	.	.	4r	.	.	4r	.	.	4r	.	.	4r	.	.	4r	.	.	4r	4ryy	.	.	.	.	.	4r	.	4r	.
.	.	.	4a/ 4e/	.	4cc/ 4e/	.	.	.	.	.	.	.	.	.	.	.	.	.	.	.	.	.	.	.	.	.	.	.	.	.	.	.	.	.	.
(32AA/LLL	.	.	.	.	.	.	.	.	.	.	.	.	.	.	.	.	.	.	.	.	.	.	.	.	.	.	.	.	.	.	.	.	.	.	.
32BBn/JJJ)	.	.	.	.	.	.	.	.	.	.	.	.	.	.	.	.	.	.	.	.	.	.	.	.	.	.	.	.	.	.	.	.	.	.	.
8CX|\L	.	.	.	.	.	.	2r	.	.	2r	.	.	2r	.	.	2r	.	.	2r	.	.	2r	.	.	2r	2ryy	.	.	.	.	.	2r	.	2r	.
16r	.	.	4a/ 4e/	.	4cc/ 4e/	.	.	.	.	.	.	.	.	.	.	.	.	.	.	.	.	.	.	.	.	.	.	.	.	.	.	.	.	.	.
(32C\LL	.	.	.	.	.	.	.	.	.	.	.	.	.	.	.	.	.	.	.	.	.	.	.	.	.	.	.	.	.	.	.	.	.	.	.
32D\JJJ)	.	.	.	.	.	.	.	.	.	.	.	.	.	.	.	.	.	.	.	.	.	.	.	.	.	.	.	.	.	.	.	.	.	.	.
8E|\L	.	.	.	.	.	.	.	.	.	.	.	.	.	.	.	.	.	.	.	.	.	.	.	.	.	.	.	.	.	.	.	.	.	.	.
16r	.	.	8a/ 8e/	.	8cc/ 8e/	.	.	.	.	.	.	.	.	.	.	.	.	.	.	.	.	.	.	.	.	.	.	.	.	.	.	.	.	.	.
(32F#X\LL	.	.	.	.	.	.	.	.	.	.	.	.	.	.	.	.	.	.	.	.	.	.	.	.	.	.	.	.	.	.	.	.	.	.	.
32G#X\JJJ)	.	.	.	.	.	.	.	.	.	.	.	.	.	.	.	.	.	.	.	.	.	.	.	.	.	.	.	.	.	.	.	.	.	.	.
*	*	*	*	*	*	*	*	*	*	*	*	*	*	*	*	*	*	*	*	*	*	*	*	*	*v	*v	*	*	*	*	*	*	*	*	*
=24	=24	=24	=24	=24	=24	=24	=24	=24	=24	=24	=24	=24	=24	=24	=24	=24	=24	=24	=24	=24	=24	=24	=24	=24	=24	=24	=24	=24	=24	=24	=24	=24	=24	=24
*	*	*	*	*	*	*	*	*	*	*	*	*	*	*	*	*	*	*	*	*	*	*	*	*	*^	*	*	*	*	*	*	*	*	*
4A\	.	.	4a/ 4e/	.	4cc/ 4e/	.	2r	.	.	2r	.	.	2r	.	.	2r	.	.	2r	.	.	2r	.	.	2r	2ryy	.	.	.	.	.	2r	.	2r	.
4r	x x	.	4r	.	4r	.	.	.	.	.	.	.	.	.	.	.	.	.	.	.	.	.	.	.	.	.	.	.	.	.	.	.	.	.	.
2r	.	.	2r	.	2r	.	2A\	qui	.	2e\	qui	.	2a\	qui	.	2cc\	qui	.	2a\	qui	.	2cc\	qui	.	2ee/	2e\	.	.	.	.	.	2a\	.	2cc\	.
!LO:LB:g=original	!	!	!	!	!	!	!	!	!	!	!	!	!	!	!	!	!	!	!	!	!	!	!	!	!	!	!	!	!	!	!	!	!	!	!
=25	=25	=25	=25	=25	=25	=25	=25	=25	=25	=25	=25	=25	=25	=25	=25	=25	=25	=25	=25	=25	=25	=25	=25	=25	=25	=25	=25	=25	=25	=25	=25	=25	=25	=25	=25
!LO:TX:a:t=4.	!	!	!LO:TX:a:t=4	!	!LO:TX:a:t=4.	!	!	!	!	!	!	!	!	!	!	!	!	!	!	!	!	!	!	!	!	!	!	!	!	!	!	!	!	!	!
00r	.	.	00r	.	00r	.	4G#X\	tol-	.	4e\	tol-	.	4bn\	tol-	.	4dd\	tol-	.	4bn\	tol-	.	4dd\	tol-	.	1ee/	1e\	.	1r	.	1r	.	1bX\	.	1dd\	.
.	.	.	.	.	.	.	8G#\	-lis	.	8e\	-lis	.	8b\	-lis	.	8dd\	-lis	.	8b\	-lis	.	8dd\	-lis	.	.	.	.	.	.	.	.	.	.	.	.
.	.	.	.	.	.	.	8G#\	pec-	.	8e\	pec-	.	8b\	pec-	.	8dd\	pec-	.	8b\	pec-	.	8dd\	pec-	.	.	.	.	.	.	.	.	.	.	.	.
.	.	.	.	.	.	.	4G#\	-ca-	.	4e\	-ca-	.	4b\	-ca-	.	4dd\	-ca-	.	4b\	-ca-	.	4dd\	-ca-	.	.	.	.	.	.	.	.	.	.	.	.
.	.	.	.	.	.	.	4G#\	-ta	.	4e\	-ta	.	4b\	-ta	.	4dd\	-ta	.	4b\	-ta	.	4dd\	-ta	.	.	.	.	.	.	.	.	.	.	.	.
!	!	!	!	!	!	!	!	!	!	!	!	!	!LO:LB:g=original	!	!	!LO:LB:g=original	!	!	!	!	!	!	!	!	!	!	!	!	!	!	!	!	!	!	!
=26	=26	=26	=26	=26	=26	=26	=26	=26	=26	=26	=26	=26	=26	=26	=26	=26	=26	=26	=26	=26	=26	=26	=26	=26	=26	=26	=26	=26	=26	=26	=26	=26	=26	=26	=26
.	.	.	.	.	.	.	4A\	mun-	.	4e\	mun-	.	4a\	mun-	.	4cc\	mun-	.	4a\	mun-	.	4cc\	mun-	.	2ee/	2e\	.	2r	.	2r	.	2a\	.	2cc\	.
.	.	.	.	.	.	.	4A\	-di	.	4e\	-di	.	4e\	-di	.	4a\	-di	.	4e\	-di	.	4a\	-di	.	.	.	.	.	.	.	.	.	.	.	.
!	!	!	!	!	!	!	!	!	!	!	!	!	!	!	!	!	!	!	!	!	!	!	!	!	!	!	!	!	!LO:DY:rj	!	!LO:DY:rj	!	!	!	!
.	.	.	.	.	.	.	4F\	mi-	.	4c\	mi-	.	4f\	mi-	.	4a\	mi-	.	4f\	mi-	.	4a\	mi-	.	2r	2ryy	.	2F/	p	2f\	p	2fn/	.	2a\	.
.	.	.	.	.	.	.	4F\	-se-	.	4c\	-se-	.	4f\	-se-	.	4a\	-se-	.	4f\	-se-	.	4a\	-se-	.	.	.	.	.	.	.	.	.	.	.	.
*	*	*	*	*	*	*	*	*	*	*	*	*	*	*	*	*	*	*	*	*	*	*	*	*	*v	*v	*	*	*	*	*	*	*	*	*
!	!	!	!	!	!	!	!LO:LB:g=original	!	!	!	!	!	!	!	!	!	!	!	!	!	!	!LO:LB:g=original	!	!	!	!	!	!	!	!	!	!	!	!
=27	=27	=27	=27	=27	=27	=27	=27	=27	=27	=27	=27	=27	=27	=27	=27	=27	=27	=27	=27	=27	=27	=27	=27	=27	=27	=27	=27	=27	=27	=27	=27	=27	=27	=27
!	!	!	!	!	!	!	!	!	!	!	!	!	!	!	!	!	!	!	!	!	!	!	!	!	!LO:TX:a:t=1	!	!	!	!	!	!	!	!	!
.	.	.	.	.	.	.	2D\	-re-	.	2d\	-re-	.	2f\	-re-	.	2b-X\	-re-	.	2f\	-re-	.	2b-X\	-re-	.	1r	.	2F/	.	2f\	.	1f/	.	2b-X\	.
!	!	!	!	!	!	!	!	!	!	!	!	!	!	!	!	!	!	!	!	!	!	!	!	!	!	!	!	!	!LO:TX:t=P:problem=uszkodzone źródło	!	!	!	!	!
.	.	.	.	.	.	.	2BB-X/	-re	.	2d\	-re	.	2f\	-re	.	2dd\	-re	.	2f\	-re	.	2dd\	-re	.	.	.	2F/	.	2f\yy	.	.	.	2dd\	.
!	!	!	!	!	!	!	!	!	!	!LO:LB:g=original	!	!	!	!	!	!	!	!	!	!	!	!	!	!	!	!	!LO:LB:g=original	!	!LO:LB:g=original	!	!	!	!	!
=28	=28	=28	=28	=28	=28	=28	=28	=28	=28	=28	=28	=28	=28	=28	=28	=28	=28	=28	=28	=28	=28	=28	=28	=28	=28	=28	=28	=28	=28	=28	=28	=28	=28	=28
*	*	*	*	*	*	*	*	*	*	*	*	*	*	*	*	*	*	*	*	*	*	*	*	*	*^	*	*	*	*	*	*	*	*	*
.	.	.	.	.	.	.	1C/	no-	.	(2A\	no-	.	(2f\	no-	.	(2cc\	no-	.	(2f\	no-	.	(2cc\	no-	.	1cc/	1c\	.	1C/	.	1c/	.	2f/	.	1cc\	.
.	.	.	.	.	.	.	.	.	.	2B-X\)	.	.	2g\)	.	.	2e/)	.	.	2g\)	.	.	2e/)	.	.	.	.	.	.	.	.	.	2enX/	.	.	.
=29	=29	=29	=29	=29	=29	=29	=29	=29	=29	=29	=29	=29	=29	=29	=29	=29	=29	=29	=29	=29	=29	=29	=29	=29	=29	=29	=29	=29	=29	=29	=29	=29	=29	=29	=29
!	!	!LO:DY:rj:t=f.	!	!LO:DY:rj:t=f.	!	!LO:DY:rj:t=f.	!	!	!	!	!	!	!	!	!	!	!	!	!	!	!	!	!	!	!	!	!LO:DY:rj:t=f.	!	!LO:DY:rj	!	!LO:DY:rj:t=f.	!	!LO:DY:rj:t=f.	!	!LO:DY:rj
4FF/	10_ 5_	f	8f/ 8c/	f	8a/ 8f/	f	4FF/	-bis	.	4c\	-bis	.	4a\	-bis	.	4f/	-bis	.	4a\	-bis	.	4f/	-bis	.	4cc/	4c\	f	4F/	f	4f\	f	4f/	f	4a\	f
.	.	.	4f/ 4c/	.	4a/ 4f/	.	.	.	.	.	.	.	.	.	.	.	.	.	.	.	.	.	.	.	.	.	.	.	.	.	.	.	.	.	.
8.r	.	.	.	.	.	.	4r	.	.	4r	.	.	4r	.	.	4r	.	.	4r	.	.	4r	.	.	2cc/	2c\	.	2A/	.	2f\	.	2f/	.	2a\	.
.	.	.	4f/ 4c/	.	4a/ 4f/	.	.	.	.	.	.	.	.	.	.	.	.	.	.	.	.	.	.	.	.	.	.	.	.	.	.	.	.	.	.
(32FF/LLL	.	.	.	.	.	.	.	.	.	.	.	.	.	.	.	.	.	.	.	.	.	.	.	.	.	.	.	.	.	.	.	.	.	.	.
32GG/JJJ)	.	.	.	.	.	.	.	.	.	.	.	.	.	.	.	.	.	.	.	.	.	.	.	.	.	.	.	.	.	.	.	.	.	.	.
8AA|/L	.	.	.	.	.	.	2r	.	.	2r	.	.	2r	.	.	2r	.	.	2r	.	.	2r	.	.	.	.	.	.	.	.	.	.	.	.	.
16r	.	.	4f/ 4c/	.	4a/ 4f/	.	.	.	.	.	.	.	.	.	.	.	.	.	.	.	.	.	.	.	.	.	.	.	.	.	.	.	.	.	.
(32AA/LL	.	.	.	.	.	.	.	.	.	.	.	.	.	.	.	.	.	.	.	.	.	.	.	.	.	.	.	.	.	.	.	.	.	.	.
32BB-X/JJJ)	.	.	.	.	.	.	.	.	.	.	.	.	.	.	.	.	.	.	.	.	.	.	.	.	.	.	.	.	.	.	.	.	.	.	.
8C|\L	.	.	.	.	.	.	.	.	.	.	.	.	.	.	.	.	.	.	.	.	.	.	.	.	4cc/	4c\	.	4A/	.	4f\	.	4f/	.	4a\	.
16r	.	.	8f/ 8c/	.	8a/ 8f/	.	.	.	.	.	.	.	.	.	.	.	.	.	.	.	.	.	.	.	.	.	.	.	.	.	.	.	.	.	.
(32D\LL	.	.	.	.	.	.	.	.	.	.	.	.	.	.	.	.	.	.	.	.	.	.	.	.	.	.	.	.	.	.	.	.	.	.	.
32E\JJJ)	.	.	.	.	.	.	.	.	.	.	.	.	.	.	.	.	.	.	.	.	.	.	.	.	.	.	.	.	.	.	.	.	.	.	.
!	!	!	!	!	!	!	!	!	!	!	!	!	!	!	!	!	!	!	!LO:LB:g=original	!	!	!	!	!	!	!	!	!	!	!	!	!	!	!	!
=30	=30	=30	=30	=30	=30	=30	=30	=30	=30	=30	=30	=30	=30	=30	=30	=30	=30	=30	=30	=30	=30	=30	=30	=30	=30	=30	=30	=30	=30	=30	=30	=30	=30	=30	=30
4F\	.	.	4f/ 4c/	.	4a/ 4f/	.	2r	.	.	2r	.	.	2r	.	.	2r	.	.	2r	.	.	2r	.	.	4cc/	4c\	.	4A/	.	4f\	.	4f/	.	4a\	.
4r	X X	.	4r	.	4r	.	.	.	.	.	.	.	.	.	.	.	.	.	.	.	.	.	.	.	4r	4ryy	.	4r	.	4r	.	4r	.	4r	.
!	!	!	!	!	!	!	!	!	!LO:DY:rj	!	!	!LO:DY:rj:t=f.	!	!	!LO:DY:rj:t=f.	!	!	!LO:DY:rj	!	!	!LO:DY:rj:t=f.	!	!	!LO:DY:rj:t=f.	!	!	!	!	!	!	!	!	!	!	!
2r	.	.	2r	.	2r	.	4F\	Ag-	f	4c\	Ag-	f	4f\	Ag-	f	4a\	Ag-	f	4f\	Ag-	f	4a\	Ag-	f	4cc/	4c\	.	2A/	.	2f\	.	2f/	.	2a\	.
.	.	.	.	.	.	.	4F\	-nus	.	4c\	-nus	.	4f\	-nus	.	4a\	-nus	.	4f\	-nus	.	4a\	-nus	.	4cc/	4c\	.	.	.	.	.	.	.	.	.
!	!	!	!LO:LB:g=original	!	!LO:LB:g=original	!	!	!	!	!	!	!	!	!	!	!	!	!	!	!	!	!	!	!	!	!	!	!	!	!	!	!LO:LB:g=original	!	!	!
=31	=31	=31	=31	=31	=31	=31	=31	=31	=31	=31	=31	=31	=31	=31	=31	=31	=31	=31	=31	=31	=31	=31	=31	=31	=31	=31	=31	=31	=31	=31	=31	=31	=31	=31	=31
!	!	!LO:DY:rj	!	!	!	!	!	!	!	!	!	!	!	!	!	!	!	!	!	!	!	!	!	!	!	!	!	!	!	!	!	!	!	!	!
4C\	7_ 5_	f	8g/ 8c/	.	8b-|\L	.	1E\	De-	.	1c\	De-	.	1g\	De-	.	1b-\	De-	.	1g\	De-	.	1b-\	De-	.	1cc/	1c\	.	1c/	.	1g/	.	1g/	.	1b-\	.
.	.	.	4g/ 4c/	.	(16bb-\L	.	.	.	.	.	.	.	.	.	.	.	.	.	.	.	.	.	.	.	.	.	.	.	.	.	.	.	.	.	.
.	.	.	.	.	16aa\JJ)	.	.	.	.	.	.	.	.	.	.	.	.	.	.	.	.	.	.	.	.	.	.	.	.	.	.	.	.	.	.
4G\	.	.	.	.	(16aa\LL	.	.	.	.	.	.	.	.	.	.	.	.	.	.	.	.	.	.	.	.	.	.	.	.	.	.	.	.	.	.
.	.	.	.	.	16gg\)	.	.	.	.	.	.	.	.	.	.	.	.	.	.	.	.	.	.	.	.	.	.	.	.	.	.	.	.	.	.
.	.	.	4g/ 4c/	.	(16gg\	.	.	.	.	.	.	.	.	.	.	.	.	.	.	.	.	.	.	.	.	.	.	.	.	.	.	.	.	.	.
.	.	.	.	.	16ff\JJ)	.	.	.	.	.	.	.	.	.	.	.	.	.	.	.	.	.	.	.	.	.	.	.	.	.	.	.	.	.	.
4E\	.	.	.	.	(16ff\LL	.	.	.	.	.	.	.	.	.	.	.	.	.	.	.	.	.	.	.	.	.	.	.	.	.	.	.	.	.	.
.	.	.	.	.	16ee\)	.	.	.	.	.	.	.	.	.	.	.	.	.	.	.	.	.	.	.	.	.	.	.	.	.	.	.	.	.	.
.	.	.	4g/ 4c/	.	(16ee\	.	.	.	.	.	.	.	.	.	.	.	.	.	.	.	.	.	.	.	.	.	.	.	.	.	.	.	.	.	.
.	.	.	.	.	16dd\JJ)	.	.	.	.	.	.	.	.	.	.	.	.	.	.	.	.	.	.	.	.	.	.	.	.	.	.	.	.	.	.
4C\	.	.	.	.	(16dd\LL	.	.	.	.	.	.	.	.	.	.	.	.	.	.	.	.	.	.	.	.	.	.	.	.	.	.	.	.	.	.
.	.	.	.	.	16cc\)	.	.	.	.	.	.	.	.	.	.	.	.	.	.	.	.	.	.	.	.	.	.	.	.	.	.	.	.	.	.
.	.	.	8g/ 8c/	.	(16cc\	.	.	.	.	.	.	.	.	.	.	.	.	.	.	.	.	.	.	.	.	.	.	.	.	.	.	.	.	.	.
.	.	.	.	.	16b-\JJ)	.	.	.	.	.	.	.	.	.	.	.	.	.	.	.	.	.	.	.	.	.	.	.	.	.	.	.	.	.	.
=32	=32	=32	=32	=32	=32	=32	=32	=32	=32	=32	=32	=32	=32	=32	=32	=32	=32	=32	=32	=32	=32	=32	=32	=32	=32	=32	=32	=32	=32	=32	=32	=32	=32	=32	=32
4F\	5_ 3_	.	8f/ 8c/	.	8a/	.	4F\	-i	.	4c\	-i	.	4f\	-i	.	4a\	-i	.	4f\	-i	.	4a\	-i	.	4cc/	4c\	.	4A/	.	4f\	.	4f/	.	4a\	.
.	.	.	4f/ 4c/	.	4a/	.	.	.	.	.	.	.	.	.	.	.	.	.	.	.	.	.	.	.	.	.	.	.	.	.	.	.	.	.	.
4C/	.	.	.	.	.	.	4r	.	.	4r	.	.	4r	.	.	4r	.	.	4r	.	.	4r	.	.	2cc/	2c\	.	2A/	.	2f\	.	2f/	.	2a\	.
.	.	.	4f/ 4c/	.	4a/	.	.	.	.	.	.	.	.	.	.	.	.	.	.	.	.	.	.	.	.	.	.	.	.	.	.	.	.	.	.
4AA/	.	.	.	.	.	.	2F\	qui	.	2c\	qui	.	2g\	qui	.	2a\	qui	.	2g\	qui	.	2a\	qui	.	.	.	.	.	.	.	.	.	.	.	.
.	.	.	4f/ 4c/	.	4a/	.	.	.	.	.	.	.	.	.	.	.	.	.	.	.	.	.	.	.	.	.	.	.	.	.	.	.	.	.	.
4FF/	.	.	.	.	.	.	.	.	.	.	.	.	.	.	.	.	.	.	.	.	.	.	.	.	4cc/	4c\	.	4A/	.	4f\	.	4f/	.	4a\	.
.	.	.	8f/ 8c/	.	8a/	.	.	.	.	.	.	.	.	.	.	.	.	.	.	.	.	.	.	.	.	.	.	.	.	.	.	.	.	.	.
!	!	!	!	!	!	!	!	!	!	!	!	!	!LO:LB:g=original	!	!	!LO:LB:g=original	!	!	!	!	!	!	!	!	!	!	!	!	!	!	!	!	!	!	!
=33	=33	=33	=33	=33	=33	=33	=33	=33	=33	=33	=33	=33	=33	=33	=33	=33	=33	=33	=33	=33	=33	=33	=33	=33	=33	=33	=33	=33	=33	=33	=33	=33	=33	=33	=33
4C\	7_ 5_	.	8g/ 8c/	.	8b-|\L	.	4E\	tol-	.	4c\	tol-	.	4g\	tol-	.	4b-\	tol-	.	4g\	tol-	.	4b-\	tol-	.	1cc/	1c\	.	1c/	.	1g/	.	1g/	.	1b-\	.
.	.	.	4g/ 4c/	.	(16bb-\L	.	.	.	.	.	.	.	.	.	.	.	.	.	.	.	.	.	.	.	.	.	.	.	.	.	.	.	.	.	.
.	.	.	.	.	16aa\JJ)	.	.	.	.	.	.	.	.	.	.	.	.	.	.	.	.	.	.	.	.	.	.	.	.	.	.	.	.	.	.
4G\	.	.	.	.	(16aa\LL	.	8E\	-lis	.	8c\	-lis	.	8g\	-lis	.	8b-\	-lis	.	8g\	-lis	.	8b-\	-lis	.	.	.	.	.	.	.	.	.	.	.	.
.	.	.	.	.	16gg\)	.	.	.	.	.	.	.	.	.	.	.	.	.	.	.	.	.	.	.	.	.	.	.	.	.	.	.	.	.	.
.	.	.	4g/ 4c/	.	(16gg\	.	8E\	pec-	.	8c\	pec-	.	8g\	pec-	.	8b-\	pec-	.	8g\	pec-	.	8b-\	pec-	.	.	.	.	.	.	.	.	.	.	.	.
.	.	.	.	.	16ff\JJ)	.	.	.	.	.	.	.	.	.	.	.	.	.	.	.	.	.	.	.	.	.	.	.	.	.	.	.	.	.	.
4E\	.	.	.	.	(16ff\LL	.	4E\	-ca-	.	4c\	-ca-	.	4g\	-ca-	.	4b-\	-ca-	.	4g\	-ca-	.	4b-\	-ca-	.	.	.	.	.	.	.	.	.	.	.	.
.	.	.	.	.	16ee\)	.	.	.	.	.	.	.	.	.	.	.	.	.	.	.	.	.	.	.	.	.	.	.	.	.	.	.	.	.	.
.	.	.	4g/ 4c/	.	(16ee\	.	.	.	.	.	.	.	.	.	.	.	.	.	.	.	.	.	.	.	.	.	.	.	.	.	.	.	.	.	.
.	.	.	.	.	16dd\JJ)	.	.	.	.	.	.	.	.	.	.	.	.	.	.	.	.	.	.	.	.	.	.	.	.	.	.	.	.	.	.
4C\	.	.	.	.	(16dd\LL	.	4E\	-ta	.	4c\	-ta	.	4g\	-ta	.	4b-\	-ta	.	4g\	-ta	.	4b-\	-ta	.	.	.	.	.	.	.	.	.	.	.	.
.	.	.	.	.	16cc\)	.	.	.	.	.	.	.	.	.	.	.	.	.	.	.	.	.	.	.	.	.	.	.	.	.	.	.	.	.	.
.	.	.	8g/ 8c/	.	(16cc\	.	.	.	.	.	.	.	.	.	.	.	.	.	.	.	.	.	.	.	.	.	.	.	.	.	.	.	.	.	.
.	.	.	.	.	16b-\JJ)	.	.	.	.	.	.	.	.	.	.	.	.	.	.	.	.	.	.	.	.	.	.	.	.	.	.	.	.	.	.
!LO:LB:g=original	!	!	!	!	!LO:LB:g=original	!	!LO:LB:g=original	!	!	!	!	!	!	!	!	!	!	!	!	!	!	!LO:LB:g=original	!	!	!LO:LB:g=original	!	!	!	!	!	!	!	!	!	!
=34	=34	=34	=34	=34	=34	=34	=34	=34	=34	=34	=34	=34	=34	=34	=34	=34	=34	=34	=34	=34	=34	=34	=34	=34	=34	=34	=34	=34	=34	=34	=34	=34	=34	=34	=34
4C\	7 5	.	4g/	.	4b-\	.	4F\	mun-	.	4c\	mun-	.	4g\	mun-	.	4b-\	mun-	.	4g\	mun-	.	4b-\	mun-	.	4cc/	4c\	.	4c/	.	4g\	.	4g/	.	4b-\	.
4F\	3	.	4f/	.	4a\	.	4F\	-di	.	4c\	-di	.	4f\	-di	.	4a\	-di	.	4f\	-di	.	4a\	-di	.	4cc/	4c\	.	4B-/	.	4f\	.	4f/	.	4a\	.
4A\	3_	.	(16A/LL	.	(16cc/LL	.	4A\	mi-	.	4f\	mi-	.	4f\	mi-	.	4b-\	mi-	.	4f\	mi-	.	4b-\	mi-	.	2cc/	2c\	.	2F/	.	2f\	.	2a\	.	2cc\	.
.	.	.	16c/)	.	16a/)	.	.	.	.	.	.	.	.	.	.	.	.	.	.	.	.	.	.	.	.	.	.	.	.	.	.	.	.	.	.
.	.	.	16f'/	.	16f'/	.	.	.	.	.	.	.	.	.	.	.	.	.	.	.	.	.	.	.	.	.	.	.	.	.	.	.	.	.	.
.	.	.	16f'/JJ	.	16f'/JJ	.	.	.	.	.	.	.	.	.	.	.	.	.	.	.	.	.	.	.	.	.	.	.	.	.	.	.	.	.	.
4A\	.	.	(16A/LL	.	(16cc/LL	.	4A\	-se-	.	4f\	-se-	.	4f\	-se-	.	4cc\	-se-	.	4f\	-se-	.	4cc\	-se-	.	.	.	.	.	.	.	.	.	.	.	.
.	.	.	16c/)	.	16a/)	.	.	.	.	.	.	.	.	.	.	.	.	.	.	.	.	.	.	.	.	.	.	.	.	.	.	.	.	.	.
.	.	.	16f'/	.	16f'/	.	.	.	.	.	.	.	.	.	.	.	.	.	.	.	.	.	.	.	.	.	.	.	.	.	.	.	.	.	.
.	.	.	16f'/JJ	.	16f'/JJ	.	.	.	.	.	.	.	.	.	.	.	.	.	.	.	.	.	.	.	.	.	.	.	.	.	.	.	.	.	.
!	!	!	!LO:LB:g=original	!	!	!	!	!	!	!LO:LB:g=original	!	!	!	!	!	!	!	!	!	!	!	!	!	!	!	!	!	!	!	!	!	!	!	!LO:LB:g=original	!
=35	=35	=35	=35	=35	=35	=35	=35	=35	=35	=35	=35	=35	=35	=35	=35	=35	=35	=35	=35	=35	=35	=35	=35	=35	=35	=35	=35	=35	=35	=35	=35	=35	=35	=35	=35
!	!	!	!	!	!	!	!	!	!	!	!	!	!	!	!	!	!	!	!	!	!	!	!	!	!	!	!	!LO:TX:a:t=1	!	!LO:TX:a:t=1.	!	!	!	!	!
4B-\	6_ 3_	.	(16B-/LL	.	(16dd/LL	.	2B-\	-re-	.	2d\	-re-	.	2g\	-re-	.	2dd\	-re-	.	2g\	-re-	.	2dd\	-re-	.	2dd/	2b-X\	.	1r	.	1r	.	2b-\	.	2dd\	.
.	.	.	16d/)	.	16b-/)	.	.	.	.	.	.	.	.	.	.	.	.	.	.	.	.	.	.	.	.	.	.	.	.	.	.	.	.	.	.
.	.	.	16g'/	.	16g'/	.	.	.	.	.	.	.	.	.	.	.	.	.	.	.	.	.	.	.	.	.	.	.	.	.	.	.	.	.	.
.	.	.	16g'/JJ	.	16g'/JJ	.	.	.	.	.	.	.	.	.	.	.	.	.	.	.	.	.	.	.	.	.	.	.	.	.	.	.	.	.	.
4B-\	.	.	(16B-/LL	.	(16dd/LL	.	.	.	.	.	.	.	.	.	.	.	.	.	.	.	.	.	.	.	.	.	.	.	.	.	.	.	.	.	.
.	.	.	16d/)	.	16b-/)	.	.	.	.	.	.	.	.	.	.	.	.	.	.	.	.	.	.	.	.	.	.	.	.	.	.	.	.	.	.
.	.	.	16g'/	.	16g'/	.	.	.	.	.	.	.	.	.	.	.	.	.	.	.	.	.	.	.	.	.	.	.	.	.	.	.	.	.	.
.	.	.	16g'/JJ	.	16g'/JJ	.	.	.	.	.	.	.	.	.	.	.	.	.	.	.	.	.	.	.	.	.	.	.	.	.	.	.	.	.	.
4B-\	.	.	(16B-/LL	.	(16dd/LL	.	2B-\	-re	.	2d\	-re	.	2g\	-re	.	2dd\	-re	.	2g\	-re	.	2dd\	-re	.	2dd/	2b-\	.	.	.	.	.	2g/	.	2b-\	.
.	.	.	16d/)	.	16b-/)	.	.	.	.	.	.	.	.	.	.	.	.	.	.	.	.	.	.	.	.	.	.	.	.	.	.	.	.	.	.
.	.	.	16g'/	.	16g'/	.	.	.	.	.	.	.	.	.	.	.	.	.	.	.	.	.	.	.	.	.	.	.	.	.	.	.	.	.	.
.	.	.	16g'/JJ	.	16g'/JJ	.	.	.	.	.	.	.	.	.	.	.	.	.	.	.	.	.	.	.	.	.	.	.	.	.	.	.	.	.	.
4B-\	.	.	(16B-/LL	.	(16dd/LL	.	.	.	.	.	.	.	.	.	.	.	.	.	.	.	.	.	.	.	.	.	.	.	.	.	.	.	.	.	.
.	.	.	16d/)	.	16b-/)	.	.	.	.	.	.	.	.	.	.	.	.	.	.	.	.	.	.	.	.	.	.	.	.	.	.	.	.	.	.
.	.	.	16g'/	.	16g'/	.	.	.	.	.	.	.	.	.	.	.	.	.	.	.	.	.	.	.	.	.	.	.	.	.	.	.	.	.	.
.	.	.	16g'/JJ	.	16g'/JJ	.	.	.	.	.	.	.	.	.	.	.	.	.	.	.	.	.	.	.	.	.	.	.	.	.	.	.	.	.	.
=36	=36	=36	=36	=36	=36	=36	=36	=36	=36	=36	=36	=36	=36	=36	=36	=36	=36	=36	=36	=36	=36	=36	=36	=36	=36	=36	=36	=36	=36	=36	=36	=36	=36	=36	=36
4c\	6_ 4_	.	(16c/LL	.	(16cc/LL	.	(2c\	no-	.	(2A\	no-	.	(2f\	no-	.	(2cc\	no-	.	(2f\	no-	.	(2cc\	no-	.	2cc/	2cc\	.	2f\	.	2a\	.	2f/	.	2a\	.
.	.	.	16f/)	.	16a/)	.	.	.	.	.	.	.	.	.	.	.	.	.	.	.	.	.	.	.	.	.	.	.	.	.	.	.	.	.	.
.	.	.	16a'/	.	16f'/	.	.	.	.	.	.	.	.	.	.	.	.	.	.	.	.	.	.	.	.	.	.	.	.	.	.	.	.	.	.
.	.	.	16a'/JJ	.	16f'/JJ	.	.	.	.	.	.	.	.	.	.	.	.	.	.	.	.	.	.	.	.	.	.	.	.	.	.	.	.	.	.
4c\	.	.	(16c/LL	.	(16cc/LL	.	.	.	.	.	.	.	.	.	.	.	.	.	.	.	.	.	.	.	.	.	.	.	.	.	.	.	.	.	.
.	.	.	16f/)	.	16a/)	.	.	.	.	.	.	.	.	.	.	.	.	.	.	.	.	.	.	.	.	.	.	.	.	.	.	.	.	.	.
.	.	.	16a'/	.	16f'/	.	.	.	.	.	.	.	.	.	.	.	.	.	.	.	.	.	.	.	.	.	.	.	.	.	.	.	.	.	.
.	.	.	16a'/JJ	.	16f'/JJ	.	.	.	.	.	.	.	.	.	.	.	.	.	.	.	.	.	.	.	.	.	.	.	.	.	.	.	.	.	.
4C/	5_ 3_	.	(16c/LL	.	(16b-/LL	.	2C/)	.	.	2c\)	.	.	2g\)	.	.	2e/)	.	.	2g\)	.	.	2e/)	.	.	2cc/	2c\	.	2c/	.	2g\	.	2e/	.	2g\	.
.	.	.	16e/)	.	16g/)	.	.	.	.	.	.	.	.	.	.	.	.	.	.	.	.	.	.	.	.	.	.	.	.	.	.	.	.	.	.
.	.	.	16g'/	.	16e'/	.	.	.	.	.	.	.	.	.	.	.	.	.	.	.	.	.	.	.	.	.	.	.	.	.	.	.	.	.	.
.	.	.	16g'/JJ	.	16e'/JJ	.	.	.	.	.	.	.	.	.	.	.	.	.	.	.	.	.	.	.	.	.	.	.	.	.	.	.	.	.	.
4C/	.	.	(16c/LL	.	(16b-/LL	.	.	.	.	.	.	.	.	.	.	.	.	.	.	.	.	.	.	.	.	.	.	.	.	.	.	.	.	.	.
.	.	.	16e/)	.	16g/)	.	.	.	.	.	.	.	.	.	.	.	.	.	.	.	.	.	.	.	.	.	.	.	.	.	.	.	.	.	.
.	.	.	16g'/	.	16e'/	.	.	.	.	.	.	.	.	.	.	.	.	.	.	.	.	.	.	.	.	.	.	.	.	.	.	.	.	.	.
.	.	.	16g'/JJ	.	16e'/JJ	.	.	.	.	.	.	.	.	.	.	.	.	.	.	.	.	.	.	.	.	.	.	.	.	.	.	.	.	.	.
!	!	!	!	!	!LO:LB:g=original	!	!	!	!	!	!	!	!	!	!	!	!	!	!LO:LB:g=original	!	!	!	!	!	!	!	!	!	!	!	!	!	!	!	!
=37	=37	=37	=37	=37	=37	=37	=37	=37	=37	=37	=37	=37	=37	=37	=37	=37	=37	=37	=37	=37	=37	=37	=37	=37	=37	=37	=37	=37	=37	=37	=37	=37	=37	=37	=37
!	!	!LO:DY:rj:t=p.	!	!LO:DY:rj:t=p.	!	!	!	!	!	!	!	!	!	!	!	!	!	!	!	!	!	!	!	!	!	!	!	!	!	!	!	!	!LO:DY:rj	!	!LO:DY:rj
4F\	3_	p	8f/ 8c/	p	8f/	.	4F\	-bis	.	4c\	-bis	.	4a\	-bis	.	4f/	-bis	.	4a\	-bis	.	4f/	-bis	.	4cc/	4c\	.	4A/	.	4f\	.	1f/	p	1a/	p
!	!	!	!	!	!	!LO:DY:rj:t=p.	!	!	!	!	!	!	!	!	!	!	!	!	!	!	!	!	!	!	!	!	!	!	!	!	!	!	!	!	!
.	.	.	4f/ 4c/	.	4a/	p	.	.	.	.	.	.	.	.	.	.	.	.	.	.	.	.	.	.	.	.	.	.	.	.	.	.	.	.	.
4C/	.	.	.	.	.	.	4r	.	.	4r	.	.	4r	.	.	4r	.	.	4r	.	.	4r	.	.	4r	4ryy	.	4r	.	4r	.	.	.	.	.
.	.	.	4f/ 4c/	.	4a/	.	.	.	.	.	.	.	.	.	.	.	.	.	.	.	.	.	.	.	.	.	.	.	.	.	.	.	.	.	.
!	!	!	!	!	!	!	!	!	!	!	!	!	!	!	!	!	!	!	!LO:TX:a:i:t=Solo	!	!LO:DY:rj	!	!	!	!	!	!	!	!	!	!	!	!	!	!
4AA/	.	.	.	.	.	.	2r	.	.	2r	.	.	2r	.	.	2r	.	.	4f\	mi-	p	4a\	mi-	.	2r	2ryy	.	2r	.	2r	.	.	.	.	.
.	.	.	4f/ 4c/	.	4a/	.	.	.	.	.	.	.	.	.	.	.	.	.	.	.	.	.	.	.	.	.	.	.	.	.	.	.	.	.	.
4FF/	.	.	.	.	.	.	.	.	.	.	.	.	.	.	.	.	.	.	4f\	-se-	.	4a\	-ſe-	.	.	.	.	.	.	.	.	.	.	.	.
.	.	.	8f/ 8c/	.	8a/	.	.	.	.	.	.	.	.	.	.	.	.	.	.	.	.	.	.	.	.	.	.	.	.	.	.	.	.	.	.
!	!	!	!LO:LB:g=original	!	!	!	!	!	!	!	!	!	!	!	!	!	!	!	!	!	!	!	!	!	!	!	!	!	!	!	!	!	!	!	!
*	*	*	*	*	*	*	*	*	*	*	*	*	*	*	*	*	*	*	*	*	*	*	*	*	*v	*v	*	*	*	*	*	*	*	*	*
=38	=38	=38	=38	=38	=38	=38	=38	=38	=38	=38	=38	=38	=38	=38	=38	=38	=38	=38	=38	=38	=38	=38	=38	=38	=38	=38	=38	=38	=38	=38	=38	=38	=38	=38
!	!	!	!	!	!	!	!LO:TX:a:t=1	!	!	!LO:TX:a:t=1	!	!	!LO:TX:a:t=3.	!	!	!LO:TX:t=3.	!	!	!	!	!	!	!	!	!LO:TX:a:t=3.	!	!LO:TX:a:t=3.	!	!LO:TX:a:t=3.	!	!	!	!	!
4C\	7_ 5_	.	8g/ 8c/	.	8b-/	.	1r	.	.	1r	.	.	0r	.	.	0r	.	.	4g\	-re-	.	4b-\	-re-	.	0r	.	0r	.	0r	.	1g/	.	1b-\	.
.	.	.	4g/ 4c/	.	4b-/	.	.	.	.	.	.	.	.	.	.	.	.	.	.	.	.	.	.	.	.	.	.	.	.	.	.	.	.	.
4G\	.	.	.	.	.	.	.	.	.	.	.	.	.	.	.	.	.	.	4g\	-re	.	4b-\	-re	.	.	.	.	.	.	.	.	.	.	.
.	.	.	4g/ 4c/	.	4b-/	.	.	.	.	.	.	.	.	.	.	.	.	.	.	.	.	.	.	.	.	.	.	.	.	.	.	.	.	.
4E\	.	.	.	.	.	.	.	.	.	.	.	.	.	.	.	.	.	.	2g\	no-	.	2b-\	no-	.	.	.	.	.	.	.	.	.	.	.
.	.	.	4g/ 4c/	.	4b-/	.	.	.	.	.	.	.	.	.	.	.	.	.	.	.	.	.	.	.	.	.	.	.	.	.	.	.	.	.
4C\	.	.	.	.	.	.	.	.	.	.	.	.	.	.	.	.	.	.	.	.	.	.	.	.	.	.	.	.	.	.	.	.	.	.
.	.	.	8g/ 8c/	.	8b-/	.	.	.	.	.	.	.	.	.	.	.	.	.	.	.	.	.	.	.	.	.	.	.	.	.	.	.	.	.
=39	=39	=39	=39	=39	=39	=39	=39	=39	=39	=39	=39	=39	=39	=39	=39	=39	=39	=39	=39	=39	=39	=39	=39	=39	=39	=39	=39	=39	=39	=39	=39	=39	=39	=39
4F\	3_	.	8f/ 8c/	.	8a/	.	2r	.	.	2r	.	.	.	.	.	.	.	.	4f\	-bis	.	4a\	-bis	.	.	.	.	.	.	.	1f/	.	1a/	.
.	.	.	4f/ 4c/	.	4a/	.	.	.	.	.	.	.	.	.	.	.	.	.	.	.	.	.	.	.	.	.	.	.	.	.	.	.	.	.
4C/	.	.	.	.	.	.	.	.	.	.	.	.	.	.	.	.	.	.	4r	.	.	4r	.	.	.	.	.	.	.	.	.	.	.	.
.	.	.	4f/ 4c/	.	4a/	.	.	.	.	.	.	.	.	.	.	.	.	.	.	.	.	.	.	.	.	.	.	.	.	.	.	.	.	.
!	!	!	!	!	!	!	!LO:TX:a:i:t=Solo	!	!	!LO:TX:a:i:t=Solo	!	!	!	!	!	!	!	!	!	!	!	!	!	!	!	!	!	!	!	!	!	!	!	!
4AA/	.	.	.	.	.	.	4F\	mi-	.	4A\	mi-	.	.	.	.	.	.	.	2r	.	.	2r	.	.	.	.	.	.	.	.	.	.	.	.
.	.	.	4f/ 4c/	.	4a/	.	.	.	.	.	.	.	.	.	.	.	.	.	.	.	.	.	.	.	.	.	.	.	.	.	.	.	.	.
4FF/	.	.	.	.	.	.	4F\	-se-	.	4A\	-se-	.	.	.	.	.	.	.	.	.	.	.	.	.	.	.	.	.	.	.	.	.	.	.
.	.	.	8f/ 8c/	.	8a/	.	.	.	.	.	.	.	.	.	.	.	.	.	.	.	.	.	.	.	.	.	.	.	.	.	.	.	.	.
!LO:LB:g=original	!	!	!	!	!	!	!	!	!	!	!	!	!	!	!	!	!	!	!	!	!	!	!	!	!	!	!	!	!	!	!	!	!	!
=40	=40	=40	=40	=40	=40	=40	=40	=40	=40	=40	=40	=40	=40	=40	=40	=40	=40	=40	=40	=40	=40	=40	=40	=40	=40	=40	=40	=40	=40	=40	=40	=40	=40	=40
4C\	7_ 3_	.	8g/ 8c/	.	8b-/	.	4G\	-re-	.	4B-\	-re-	.	1r	.	.	1r	.	.	1r	.	.	1r	.	.	1r	.	1r	.	1r	.	1g/	.	1b-\	.
.	.	.	4g/ 4c/	.	4b-/	.	.	.	.	.	.	.	.	.	.	.	.	.	.	.	.	.	.	.	.	.	.	.	.	.	.	.	.	.
4G\	.	.	.	.	.	.	4G\	-re	.	4B-\	-re	.	.	.	.	.	.	.	.	.	.	.	.	.	.	.	.	.	.	.	.	.	.	.
.	.	.	4g/ 4c/	.	4b-/	.	.	.	.	.	.	.	.	.	.	.	.	.	.	.	.	.	.	.	.	.	.	.	.	.	.	.	.	.
4E\	.	.	.	.	.	.	2G\	no-	.	2B-\	no-	.	.	.	.	.	.	.	.	.	.	.	.	.	.	.	.	.	.	.	.	.	.	.
.	.	.	4g/ 4c/	.	4b-/	.	.	.	.	.	.	.	.	.	.	.	.	.	.	.	.	.	.	.	.	.	.	.	.	.	.	.	.	.
4C\	.	.	.	.	.	.	.	.	.	.	.	.	.	.	.	.	.	.	.	.	.	.	.	.	.	.	.	.	.	.	.	.	.	.
.	.	.	8g/ 8c/	.	8b-/	.	.	.	.	.	.	.	.	.	.	.	.	.	.	.	.	.	.	.	.	.	.	.	.	.	.	.	.	.
!	!	!	!	!	!	!	!LO:LB:g=original	!	!	!	!	!	!LO:LB:g=original	!	!	!LO:LB:g=original	!	!	!LO:LB:g=original	!	!	!LO:LB:g=original	!	!	!	!	!	!	!LO:LB:g=original	!	!	!	!	!
=41	=41	=41	=41	=41	=41	=41	=41	=41	=41	=41	=41	=41	=41	=41	=41	=41	=41	=41	=41	=41	=41	=41	=41	=41	=41	=41	=41	=41	=41	=41	=41	=41	=41	=41
*	*	*	*	*	*	*	*	*	*	*	*	*	*	*	*	*	*	*	*	*	*	*	*	*	*^	*	*	*	*	*	*	*	*	*
4F\	3	.	4f/ 4c/	.	4a/	.	4F\	-bis	.	4A\	-bis	.	2r	.	.	2r	.	.	2r	.	.	2r	.	.	2r	2ryy	.	2r	.	2r	.	4f/	.	4a\	.
4r	.	.	4r	.	4r	.	4r	.	.	4r	.	.	.	.	.	.	.	.	.	.	.	.	.	.	.	.	.	.	.	.	.	4r	.	4r	.
!LO:TX:a:i:t=Pedale	!	!LO:DY:rj	!	!LO:DY:a:rj	!	!LO:DY:rj	!	!	!LO:DY:a:rj	!	!	!LO:DY:rj	!	!	!LO:DY:rj	!	!	!LO:DY:rj	!	!	!LO:DY:rj	!	!	!LO:DY:rj	!	!	!LO:DY:rj	!	!LO:DY:rj	!	!LO:DY:a:rj	!	!LO:DY:rj	!	!LO:DY:rj
4FF/	.	pp	4f/ 4c/	pp	4a/	pp	2FF/	no-	pp	2c\	no-	pp	2f\	no-	pp	2a\	no-	pp	2f\	no-	pp	2a\	no-	pp	2cc/	2c\	pp	2F/	pp	2A/	pp	4f/	pp	2a\	pp
4FF/	.	.	4f/ 4c/	.	4a/	.	.	.	.	.	.	.	.	.	.	.	.	.	.	.	.	.	.	.	.	.	.	.	.	.	.	4f/	.	.	.
=42	=42	=42	=42	=42	=42	=42	=42	=42	=42	=42	=42	=42	=42	=42	=42	=42	=42	=42	=42	=42	=42	=42	=42	=42	=42	=42	=42	=42	=42	=42	=42	=42	=42	=42	=42
!LO:TX:b:i:t=Finis	!	!	!LO:TX:b:i:t=Finis	!	!LO:TX:b:i:t=Finis	!	!LO:TX:b:i:t=Finis	!	!	!LO:TX:b:i:t=Finis	!	!	!LO:TX:b:i:t=Finis	!	!	!LO:TX:b:i:t=Finis	!	!	!LO:TX:b:i:t=Finis	!	!	!LO:TX:b:i:t=Finis	!	!	!LO:TX:b:i:t=Finis	!	!	!LO:TX:b:i:t=Finis	!	!LO:TX:b:i:t=Finis	!	!LO:TX:b:i:t=Finis	!	!LO:TX:b:i:t=Finis	!
1FF/;	.	.	1f/ 1c/;	.	1a/;	.	1FF/;	-bis	.	1c\;	-bis	.	1f\;	-bis	.	1a\;	-bis	.	1f\;	-bis	.	1a\;	-bis	.	1cc/;	1c\;	.	1F/;	.	1A/;	.	1f/;	.	1a/;	.
*	*	*	*	*	*	*	*	*	*	*	*	*	*	*	*	*	*	*	*	*	*	*	*	*	*v	*v	*	*	*	*	*	*	*	*	*
==	==	==	==	==	==	==	==	==	==	==	==	==	==	==	==	==	==	==	==	==	==	==	==	==	==	==	==	==	==	==	==	==	==	==
*-	*-	*-	*-	*-	*-	*-	*-	*-	*-	*-	*-	*-	*-	*-	*-	*-	*-	*-	*-	*-	*-	*-	*-	*-	*-	*-	*-	*-	*-	*-	*-	*-	*-	*-
!!!system-decoration: [(s1,s2)][(s3,s4,s5)][(s6,s7)][(s8,s9,s10,s11)][(s12,s13)]s14
!!!RDF**kern: | = vertical stroke
!!!ENC: Tomasz Grochalski
!!!END: 2020-10-11
!!!EED: Andrzej Borzym
!!!EEV: 2022-01-16
!!!YEC: Copyright 2022 Narodowy Instytut Fryderyka Chopina (https://polishscores.org)
!!!YEM: Licence CC BY 4.0 (https://creativecommons.org/licenses/by/4.0)
